!!!!SEGMENT: pl-cz--iii-451--008_maader-ludwik--missa-g-agnus-dei.krn
!!!cenid: 18xx:968
!!!COM: Maader, Ludwik
!!!COM-rismid: pe30020328
!!!CDT: <1794->1798
!!!CNT:
!!!OPR: Missa G
!!!OTL: Agnus Dei
!!!OMV: 008
!!!PDT: 1815
!!!AGN: Sacred; Mass
!!!SMS-siglum: PL-CZ
!!!SMS-shelfmark: III-451
!!!SMS-shelfwork: 001-008 M
!!!SMS-variant:
!!!SMS-altvar:
!!!NIFC-rismid: 300000763
!!!URL-scan: http://repozytorium.nifc.pl/skany/pl-cz-nut--iii-451
!!!ONB-nifc: UWAGA: części Mszy: Kyrie, Gloria, Credo, Et incarnatus, Sanctus, Pleni sunt, Benedicuts, Agnus Dei
!!!key: e
**kern	**fba	**text	**dynam	**kern	**text	**dynam	**kern	**dynam	**kern	**dynam	**kern	**text	**dynam	**kern	**text	**kern	**text	**kern	**kern	**kern	**dynam	**kern	**dynam
*part10	*	*part10	*part10	*part10	*part10	*part10	*part9	*part9	*part8	*part8	*part7	*part7	*part7	*part6	*part6	*part5	*part5	*part4	*part3	*part2	*part2	*part1	*part1
*staff11	*	*staff11	*staff11	*staff10	*staff10	*	*staff9	*	*staff8	*	*staff7	*staff7	*	*staff6	*staff6	*staff5	*staff5	*staff4	*staff3	*staff2	*	*staff1	*
*	*	*	*	*IGconc	*	*	*IGripn	*	*IGripn	*	*IGcoro	*	*	*IGcoro	*	*IGcoro	*	*IGripn	*IGripn	*IGripn	*	*IGripn	*
*	*	*	*	*ICklav	*	*	*ICstr	*	*ICstr	*	*ICvox	*	*	*ICvox	*	*ICvox	*	*ICbras	*ICbras	*ICww	*	*ICww	*
*	*	*	*	*Iorgan	*	*	*Ivioln	*	*Ivioln	*	*Ibass	*	*	*Isoprn	*	*Isoprn	*	*Icor	*Icor	*Iflt	*	*Iflt	*
*	*	*	*	*I"ORGANO CONCERTANDO	*	*	*I"Violino SECONDO	*	*I"VioLino Primo	*	*I"BASSO	*	*	*I"CANTO SeCONDO	*	*I"CANTO Primo	*	*I"Cornu SeCondo	*I"Cornu Primo	*I"flauto Secundo	*	*I"flauto Primo	*
*	*	*	*	*I'org conc	*	*	*I'vl 2	*	*I'vl 1	*	*I'B	*	*	*I'S 2	*	*I'S 1	*	*I'cor 2	*I'cor 1	*I'fl 2	*	*I'fl 1	*
*clefF4	*	*	*	*clefG2	*	*	*clefG2	*	*clefG2	*	*clefF4	*	*	*clefC1	*	*clefC1	*	*clefG2	*clefG2	*clefG2	*	*clefG2	*
*ITrd-1c-2	*	*	*	*ITrd-1c-2	*	*	*	*	*	*	*	*	*	*	*	*	*	*ITrd3c5	*ITrd3c5	*	*	*	*
*k[f#]	*	*	*	*k[f#]	*	*	*k[f#]	*	*k[f#]	*	*k[f#]	*	*	*k[f#]	*	*k[f#]	*	*k[f#]	*k[f#]	*k[f#]	*	*k[f#]	*
*G:	*	*	*	*G:	*	*	*G:	*	*G:	*	*G:	*	*	*G:	*	*G:	*	*G:	*G:	*G:	*	*G:	*
*M4/4	*	*	*	*M4/4	*	*	*M4/4	*	*M4/4	*	*M4/4	*	*	*M4/4	*	*M4/4	*	*M4/4	*M4/4	*M4/4	*	*M4/4	*
*met(c)	*	*	*	*met(c)	*	*	*met(c)	*	*met(c)	*	*met(c)	*	*	*met(c)	*	*met(c)	*	*met(c)	*met(c)	*met(c)	*	*met(c)	*
*2\right	*	*	*	*2\right	*	*	*2\right	*	*2\right	*	*2\right	*	*	*2\right	*	*2\right	*	*2\right	*2\right	*2\right	*	*2\right	*
*all\right	*	*	*	*all\right	*	*	*all\right	*	*all\right	*	*all\right	*	*	*all\right	*	*all\right	*	*all\right	*all\right	*all\right	*	*all\right	*
=1	=1	=1	=1	=1	=1	=1	=1	=1	=1	=1	=1	=1	=1	=1	=1	=1	=1	=1	=1	=1	=1	=1	=1
!	!	!	!	!	!	!	!	!	!	!	!LO:TX:a:t=Solo.	!	!	!	!	!	!	!	!	!	!	!	!
!	!	!	!	!LO:TX:t=P:problem:partia zapisana cały ton niżej	!	!	!	!	!	!	!	!	!	!LO:TX:a:t=9	!	!LO:TX:a:t=5	!	!LO:TX:a:t=1	!LO:TX:a:t=1	!	!	!	!
!	!	!	!LO:DY:a:t=forte	!LO:TX:a:B:t=Adagio	!	!	!LO:TX:a:B:t=Adagio:color=red:rj	!LO:DY:a:t=forte:color=red	!LO:TX:a:B:t=Adagio:color=red:rj	!LO:DY:a:t=forte	!LO:TX:a:B:t=Adagio:color=red:rj	!	!	!LO:TX:a:B:t=Adagio:color=red:rj	!	!LO:TX:a:B:t=Adagio:color=red:rj	!	!LO:TX:a:B:t=Adagio:color=red:rj	!LO:TX:a:B:t=Adagio:color=red:rj	!LO:TX:a:B:t=Adagio:color=red:rj	!LO:DY:a:t=forte	!LO:TX:a:B:t=Adagio:color=red:rj	!LO:DY:a:t=forte
16.E\LL|	.	A-	f	1ryy	.	.	16.e/LL	f	16.e/LL	f	(16.E\LL	A-	.	00r	.	00r	.	1r	1r	2b\	f	4ee\	f
32G\K|	.	.	.	.	.	.	32g/K	.	32g/K	.	32G\JJk)	.	.	.	.	.	.	.	.	.	.	.	.
16.F#\|	.	-gnus	.	.	.	.	16.f#/	.	16.f#/	.	(16.F#\LL	-gnus	.	.	.	.	.	.	.	.	.	.	.
32E\JJk|	.	.	.	.	.	.	32e/JJk	.	32e/JJk	.	32E\JJk)	.	.	.	.	.	.	.	.	.	.	.	.
8D#X/L|>	.	De-	.	.	.	.	8d#X/L	.	8d#X/L	.	8D#X\	De-	.	.	.	.	.	.	.	.	.	4dd#X\	.
8BB/J|>	.	-i	.	.	.	.	8B/J	.	8B/J	.	8BB\	-i	.	.	.	.	.	.	.	.	.	.	.
16.E\LL|	.	qui	.	.	.	.	16.e/LL	.	16.e/LL|	.	(16.E\LL	qui	.	.	.	.	.	.	.	2b\	.	4ee\	.
32G\K|	.	.	.	.	.	.	32g/K	.	32g/K|	.	32G\JJk)	.	.	.	.	.	.	.	.	.	.	.	.
16.F#\|	.	.	.	.	.	.	16.f#/	.	16.f#/|	.	(16.F#\LL	tol-	.	.	.	.	.	.	.	.	.	.	.
32E\JJk|	.	tol-	.	.	.	.	32e/JJk	.	32e/JJk|	.	32E\JJk)	.	.	.	.	.	.	.	.	.	.	.	.
8D#X/L|>	.	-lis	.	.	.	.	8d#X/L	.	8d#X/L	.	8D#X\	.	.	.	.	.	.	.	.	.	.	4dd#X\	.
8BB/J|>	.	.	.	.	.	.	8B/J	.	8B/J	.	8BB\	-lis	.	.	.	.	.	.	.	.	.	.	.
=2	=2	=2	=2	=2	=2	=2	=2	=2	=2	=2	=2	=2	=2	=2	=2	=2	=2	=2	=2	=2	=2	=2	=2
16.E\LL|	.	pec-	.	1ryy	.	.	16.e/LL	.	16.e/LL	.	16.E\LL	pec-	.	.	.	.	.	2r	2r	2b\	.	4ee\	.
32F#\K|	.	.	.	.	.	.	32f#/K	.	32f#/K	.	32F#\JJk	.	.	.	.	.	.	.	.	.	.	.	.
16.G\|	.	-ca-	.	.	.	.	16.g/	.	16.g/	.	16.G\	-ca-	.	.	.	.	.	.	.	.	.	.	.
32A\JJk|	.	-ta	.	.	.	.	32a/JJk	.	32a/JJk	.	32A\	-ta	.	.	.	.	.	.	.	.	.	.	.
!LO:TX:t=P:problem:mixed beam	!	!	!	!	!	!	!	!	!	!	!	!	!	!	!	!	!	!	!	!	!	!	!
!	!	!	!	!	!	!	!LO:TX:t=P:problem:mixed beam	!	!LO:TX:t=P:problem:mixed beam	!	!LO:TX:t=P:problem:mixed beam	!	!	!	!	!	!	!	!	!	!	!	!
8B\L|	.	mun-	.	.	.	.	8b\L	.	8b\L	.	8B\L	mun-	.	.	.	.	.	.	.	.	.	4ff#\	.
8BB/J|>	.	.	.	.	.	.	8B/J	.	8B/J	.	8BB/J	.	.	.	.	.	.	.	.	.	.	.	.
*	*	*	*	*	*	*	*Xtuplet	*	*Xtuplet	*	*	*	*	*	*	*	*	*	*	*	*	*	*
!	!	!	!	!	!	!	!	!	!LO:TX:t=P:problem:mixed beam	!	!	!	!	!	!	!	!	!	!	!	!	!	!
!	!	!	!	!	!	!	!	!LO:DY:a:t=Piano:color=red	!	!	!	!	!	!	!	!	!	!	!	!	!	!	!
8E/|>	.	-di	.	.	.	.	24e/LL	p	24e/LL	.	8E\	-di	.	.	.	.	.	4B/	4b\	4g/	.	4ee\	.
.	.	.	.	.	.	.	24g/	.	24b\	.	.	.	.	.	.	.	.	.	.	.	.	.	.
.	.	.	.	.	.	.	24g/JJ	.	24b\JJ	.	.	.	.	.	.	.	.	.	.	.	.	.	.
8r	.	.	.	.	.	.	24g/LL	.	24b/LL	.	8r	.	.	.	.	.	.	.	.	.	.	.	.
.	.	.	.	.	.	.	24g/	.	24b/	.	.	.	.	.	.	.	.	.	.	.	.	.	.
.	.	.	.	.	.	.	24g/JJ	.	24b/JJ	.	.	.	.	.	.	.	.	.	.	.	.	.	.
4r	.	.	.	.	.	.	24g/LL	.	24b/LL	.	4r	.	.	.	.	.	.	8r	8r	8r	.	8r	.
.	.	.	.	.	.	.	24f#/	.	24a/	.	.	.	.	.	.	.	.	.	.	.	.	.	.
.	.	.	.	.	.	.	24e/JJ	.	24g/JJ	.	.	.	.	.	.	.	.	.	.	.	.	.	.
.	.	.	.	.	.	.	24g/LL	.	24b/LL	.	.	.	.	.	.	.	.	8B/	8b\	8gg\	.	8bb\	.
.	.	.	.	.	.	.	24f#/	.	24a/	.	.	.	.	.	.	.	.	.	.	.	.	.	.
.	.	.	.	.	.	.	24e/JJ	.	24g/JJ	.	.	.	.	.	.	.	.	.	.	.	.	.	.
=3	=3	=3	=3	=3	=3	=3	=3	=3	=3	=3	=3	=3	=3	=3	=3	=3	=3	=3	=3	=3	=3	=3	=3
!	!	!	!	!LO:LB:g=original	!	!	!	!	!	!	!LO:LB:g=original	!	!	!	!	!	!	!	!	!	!	!	!
!LO:LB:g=original	!	!	!	!	!	!	!	!	!LO:N:vis=8	!	!LO:TX:a:t=2	!	!	!	!	!	!	!	!	!	!	!	!
8BB/	5 3	.	.	1ryy	.	.	24d#X/LL	.	24f#/LL	.	0r	.	.	.	.	.	.	4B/	4b\	4ff#\	.	4aa\	.
.	.	.	.	.	.	.	24f#/	.	24a/	.	.	.	.	.	.	.	.	.	.	.	.	.	.
.	.	.	.	.	.	.	24f#/JJ	.	24a/JJ	.	.	.	.	.	.	.	.	.	.	.	.	.	.
8r	.	.	.	.	.	.	24f#/LL	.	24a/LL	.	.	.	.	.	.	.	.	.	.	.	.	.	.
.	.	.	.	.	.	.	24f#/	.	24a/	.	.	.	.	.	.	.	.	.	.	.	.	.	.
.	.	.	.	.	.	.	24f#/JJ	.	24a/JJ	.	.	.	.	.	.	.	.	.	.	.	.	.	.
4r	.	.	.	.	.	.	24f#/LL	.	24a/LL	.	.	.	.	.	.	.	.	8r	8r	8r	.	8r	.
.	.	.	.	.	.	.	24e/	.	24g/	.	.	.	.	.	.	.	.	.	.	.	.	.	.
.	.	.	.	.	.	.	24d#/JJ	.	24f#/JJ	.	.	.	.	.	.	.	.	.	.	.	.	.	.
.	.	.	.	.	.	.	24f#/LL	.	24a/LL	.	.	.	.	.	.	.	.	8B/	8b\	8ff#\	.	8aa\	.
.	.	.	.	.	.	.	24e/	.	24g/	.	.	.	.	.	.	.	.	.	.	.	.	.	.
.	.	.	.	.	.	.	24d#/JJ	.	24f#/JJ	.	.	.	.	.	.	.	.	.	.	.	.	.	.
8E/	x 3	.	.	.	.	.	24e/LL	.	24e/LL	.	.	.	.	.	.	.	.	4B/	4b\	4ee\	.	4gg\	.
.	.	.	.	.	.	.	24b/	.	24g/	.	.	.	.	.	.	.	.	.	.	.	.	.	.
.	.	.	.	.	.	.	24b/JJ	.	24g/JJ	.	.	.	.	.	.	.	.	.	.	.	.	.	.
!	!	!	!	!	!	!	!LO:LB:g=original	!	!	!	!	!	!	!	!	!	!	!	!	!	!	!	!
8r	.	.	.	.	.	.	24b/LL	.	24g/LL	.	.	.	.	.	.	.	.	.	.	.	.	.	.
.	.	.	.	.	.	.	24b/	.	24g/	.	.	.	.	.	.	.	.	.	.	.	.	.	.
.	.	.	.	.	.	.	24b/JJ	.	24g/JJ	.	.	.	.	.	.	.	.	.	.	.	.	.	.
!	!	!	!	!	!	!	!	!	!LO:LB:g=original	!	!	!	!	!	!	!	!	!	!	!	!	!	!
4r	.	.	.	.	.	.	24b/LL	.	24g/LL	.	.	.	.	.	.	.	.	8r	8r	8r	.	8r	.
.	.	.	.	.	.	.	24a/	.	24f#/	.	.	.	.	.	.	.	.	.	.	.	.	.	.
.	.	.	.	.	.	.	24g/JJ	.	24e/JJ	.	.	.	.	.	.	.	.	.	.	.	.	.	.
.	.	.	.	.	.	.	24b/LL	.	24g/LL	.	.	.	.	.	.	.	.	8B/	8b\	8b\	.	8gg\	.
.	.	.	.	.	.	.	24a/	.	24f#/	.	.	.	.	.	.	.	.	.	.	.	.	.	.
.	.	.	.	.	.	.	24g/JJ	.	24e/JJ	.	.	.	.	.	.	.	.	.	.	.	.	.	.
=4	=4	=4	=4	=4	=4	=4	=4	=4	=4	=4	=4	=4	=4	=4	=4	=4	=4	=4	=4	=4	=4	=4	=4
8BB/	5 3	.	.	1ryy	.	.	24f#/LL	.	24d#X/LL	.	.	.	.	.	.	.	.	4B/	4b\	4a/	.	4ff#\	.
.	.	.	.	.	.	.	24a/	.	24f#/	.	.	.	.	.	.	.	.	.	.	.	.	.	.
.	.	.	.	.	.	.	24a/JJ	.	24f#/JJ	.	.	.	.	.	.	.	.	.	.	.	.	.	.
8r	.	.	.	.	.	.	24a/LL	.	24f#/LL	.	.	.	.	.	.	.	.	.	.	.	.	.	.
.	.	.	.	.	.	.	24a/	.	24f#/	.	.	.	.	.	.	.	.	.	.	.	.	.	.
.	.	.	.	.	.	.	24a/JJ	.	24f#/JJ	.	.	.	.	.	.	.	.	.	.	.	.	.	.
4r	.	.	.	.	.	.	24a/LL	.	24f#/LL	.	.	.	.	.	.	.	.	8r	8r	8r	.	8r	.
.	.	.	.	.	.	.	24g/	.	24e/	.	.	.	.	.	.	.	.	.	.	.	.	.	.
.	.	.	.	.	.	.	24f#/JJ	.	24d#/JJ	.	.	.	.	.	.	.	.	.	.	.	.	.	.
.	.	.	.	.	.	.	24a/LL	.	24f#/LL	.	.	.	.	.	.	.	.	8B/	8b\	8a/	.	8ff#\	.
.	.	.	.	.	.	.	24g/	.	24e/	.	.	.	.	.	.	.	.	.	.	.	.	.	.
.	.	.	.	.	.	.	24f#/JJ	.	24d#/JJ	.	.	.	.	.	.	.	.	.	.	.	.	.	.
!	!	!	!	!	!	!	!	!	!	!	!	!	!	!	!	!	!	!	!	!	!	!LO:LB:g=original	!
4r	.	.	.	.	.	.	24e/LL	.	24e/LL	.	.	.	.	.	.	.	.	4B/	4b\	4g/	.	4ee\	.
.	.	.	.	.	.	.	24g/	.	24b/	.	.	.	.	.	.	.	.	.	.	.	.	.	.
.	.	.	.	.	.	.	24g/JJ	.	24b/JJ	.	.	.	.	.	.	.	.	.	.	.	.	.	.
.	.	.	.	.	.	.	24g/LL	.	24b\LL	.	.	.	.	.	.	.	.	.	.	.	.	.	.
.	.	.	.	.	.	.	24f#/	.	24a\	.	.	.	.	.	.	.	.	.	.	.	.	.	.
.	.	.	.	.	.	.	24e/JJ	.	24g\JJ	.	.	.	.	.	.	.	.	.	.	.	.	.	.
16r	.	.	.	.	.	.	4d#X/	.	4f#/	.	.	.	.	.	.	.	.	4r	4r	4b/	.	4dd#X\	.
16BB/ 16B	x 5	.	.	.	.	.	.	.	.	.	.	.	.	.	.	.	.	.	.	.	.	.	.
8BB/ 8B	x _	.	.	.	.	.	.	.	.	.	.	.	.	.	.	.	.	.	.	.	.	.	.
=5	=5	=5	=5	=5	=5	=5	=5	=5	=5	=5	=5	=5	=5	=5	=5	=5	=5	=5	=5	=5	=5	=5	=5
*	*	*	*	*Xtuplet	*	*	*	*	*	*	*	*	*	*	*	*	*	*	*	*	*	*	*
!	!	!	!	!	!	!	!	!	!	!	!	!	!	!	!	!	!	!	!	!LO:LB:g=original	!	!	!
!	!	!	!	!	!	!	!LO:N:vis=4	!	!	!	!	!	!	!	!	!	!	!LO:TX:a:t=9	!LO:TX:a:t=9	!LO:N:vis=1	!	!	!
4E/	x x	.	.	24ee\LL 24gg	.	.	8r	.	16r	.	2r	.	.	00r	.	1r	.	00r	00r	2r	.	4r	.
.	.	.	.	24ff#\ 24aa	.	.	.	.	.	.	.	.	.	.	.	.	.	.	.	.	.	.	.
!	!	!	!	!	!	!	!	!	!LO:N:vis=16	!	!	!	!	!	!	!	!	!	!	!	!	!	!
.	.	.	.	.	.	.	.	.	8r	.	.	.	.	.	.	.	.	.	.	.	.	.	.
.	.	.	.	24gg\JJ 24bb	.	.	.	.	.	.	.	.	.	.	.	.	.	.	.	.	.	.	.
.	.	.	.	24gg\LL 24bb	.	.	16r	.	.	.	.	.	.	.	.	.	.	.	.	.	.	.	.
.	.	.	.	24ff#\ 24aa	.	.	.	.	.	.	.	.	.	.	.	.	.	.	.	.	.	.	.
!	!	!	!	!	!	!	!LO:N:vis=8	!	!	!	!	!	!	!	!	!	!	!	!	!	!	!	!
.	.	.	.	.	.	.	16B/	.	16B/	.	.	.	.	.	.	.	.	.	.	.	.	.	.
.	.	.	.	24ee\JJ 24gg	.	.	.	.	.	.	.	.	.	.	.	.	.	.	.	.	.	.	.
!	!	!	!	!	!	!	!LO:N:vis=8	!	!	!	!	!	!	!	!	!	!	!	!	!	!	!	!
4B\	.	.	.	4dd#X\ 4ff#	.	.	4B/	.	4B/	.	.	.	.	.	.	.	.	.	.	.	.	4r	.
!	!	!	!	!	!	!	!	!LO:DY:a:t=forte:color=red	!	!LO:DY:b	!	!	!	!	!	!	!	!	!	!	!	!	!
16.E\LL	.	A-	.	16.ee\LL	.	.	16.e/LL	f	16.ee\LL	ff	16.E\	A-	.	.	.	.	.	.	.	8g/	.	8ee\	.
32F#\K	.	-gnus	.	32ff#\K	.	.	32f#/K	.	32ff#\K	.	32F#\	-gnus	.	.	.	.	.	.	.	.	.	.	.
16.G\	.	De-	.	16.gg\	.	.	16.g/	.	16.gg\	.	16.G\	De-	.	.	.	.	.	.	.	4g/	.	4ee\	.
32A\JJk	.	-i	.	32aa\JJk	.	.	32a/JJk	.	32aa\JJk	.	32A\	-i	.	.	.	.	.	.	.	.	.	.	.
!LO:TX:t=P:problem:mixed beam	!	!	!	!LO:TX:t=P:problem:mixed beam	!	!	!LO:TX:t=P:problem:mixed beam	!	!LO:TX:t=P:problem:mixed beam	!	!	!	!	!	!	!	!	!	!	!	!	!	!
16.B\LL	.	qui	.	16.bb\LL	.	.	16.b\LL	.	16.bb\LL	.	(16.B\LL	qui	.	.	.	.	.	.	.	.	.	.	.
32A#X\K	.	.	.	32aa#X\K	.	.	32a#X\K	.	32aa#X\K	.	32A#X\JJk)	.	.	.	.	.	.	.	.	.	.	.	.
16.B\	.	tol-	.	16.bb\	.	.	16.b\	.	16.bb\	.	16.B\	tol-	.	.	.	.	.	.	.	8f#X/	.	8dd#X\	.
32BB/JJk	.	-lis	.	32b/JJk	.	.	32B/JJk	.	32b/JJk	.	32BB/	-lis	.	.	.	.	.	.	.	.	.	.	.
=6	=6	=6	=6	=6	=6	=6	=6	=6	=6	=6	=6	=6	=6	=6	=6	=6	=6	=6	=6	=6	=6	=6	=6
!LO:LB:g=original	!	!	!	!LO:LB:g=original	!	!	!	!	!	!	!	!	!	!	!	!LO:N:vis=1	!	!	!	!	!	!	!
8E/L	.	.	.	8ee\L	pec-	.	8e/L	.	8ee\L	.	8E\	pec-	.	.	.	2r	.	.	.	8g\L	.	8ee\L	.
8E/J	.	.	.	8ee\J	-ca-	.	8e/J	.	8ee\J	.	8E\	-ca-	.	.	.	.	.	.	.	8ee\J	.	8ee\J	.
!	!	!	!	!	!	!	!	!	!	!	!	!	!	!	!	!	!	!	!	!	!	!LO:TX:a:t=e	!
4E/	.	.	.	4ee\	-ta	.	4e/	.	4ee\	.	4E\	-ta	.	.	.	.	.	.	.	4ee\	.	4ee\	.
*clefG2	*	*	*	*	*	*	*	*	*	*	*	*	*	*	*	*	*	*	*	*	*	*	*
*tremolo	*	*	*	*	*	*	*	*	*	*	*	*	*	*	*	*	*	*	*	*	*	*	*
!	!	!	!	!LO:TX:a:t=Solo	!	!	!	!	!	!LO:DY:a	!	!	!	!	!	!	!	!	!	!	!	!LO:N:vis=1	!
8e/ 8gL	.	.	.	4.b\	A-	.	16r	.	16r	.	2r	.	.	.	.	4.b\	A-	.	.	4r	.	2r	.
!	!	!	!	!	!	!	!	!LO:DY:a:t=Piano:color=red	!	!LO:DY:a:Bi:t=Piano	!	!	!	!	!	!	!	!	!	!	!	!	!
.	.	.	.	.	.	.	16g/LL	p	16b/LL	p	.	.	.	.	.	.	.	.	.	.	.	.	.
!	!	!	!	!	!	!	!	!LO:DY:b:Bi:t=po	!	!	!	!	!	!	!	!	!	!	!	!	!	!	!
.	.	.	.	.	.	.	.	p	.	.	.	.	.	.	.	.	.	.	.	.	.	.	.
8e/ 8g	.	.	.	.	.	.	16g/	.	16b/	.	.	.	.	.	.	.	.	.	.	.	.	.	.
.	.	.	.	.	.	.	16g/JJ	.	16b/JJ	.	.	.	.	.	.	.	.	.	.	.	.	.	.
8e/ 8g	.	.	.	.	.	.	16r	.	16r	.	.	.	.	.	.	.	.	.	.	4r	.	.	.
.	.	.	.	.	.	.	16g/LL	.	16ee\LL	.	.	.	.	.	.	.	.	.	.	.	.	.	.
!	!	!	!	!	!	!LO:DY:a:t=Piano	!	!	!	!	!	!	!	!	!	!	!	!	!	!	!	!	!
8e/ 8gJ	.	.	.	8ee\	-gnus	p	16g/	.	16ee\	.	.	.	.	.	.	8ee\	-gnus	.	.	.	.	.	.
.	.	.	.	.	.	.	16g/JJ	.	16ee\JJ	.	.	.	.	.	.	.	.	.	.	.	.	.	.
=7	=7	=7	=7	=7	=7	=7	=7	=7	=7	=7	=7	=7	=7	=7	=7	=7	=7	=7	=7	=7	=7	=7	=7
!	!	!	!	!	!	!	!	!	!LO:N:vis=8	!	!LO:TX:a:t=10.	!	!	!	!	!	!	!	!	!LO:TX:a:t=5	!	!LO:TX:a:t=5	!
8f#/ 8aL	.	.	.	16ee\LL	De-	.	16r	.	16r	.	00r	.	.	.	.	(16ee\LL	De-	.	.	00r	.	00r	.
!	!	!	!	!	!	!	!	!	!LO:SIC:v:s=16dd#\LL	!	!	!	!	!	!	!	!	!	!	!	!	!	!
.	.	.	.	16dd#X\JJ	.	.	16a/LL	.	16dd\LL	.	.	.	.	.	.	16dd#X\JJ)	.	.	.	.	.	.	.
!	!	!	!	!	!	!	!	!	!LO:SIC:v:s=16dd#\	!	!	!	!	!	!	!	!	!	!	!	!	!	!
8f#/ 8a	.	.	.	8dd#\	-i	.	16a/	.	16dd\	.	.	.	.	.	.	8dd#\	-i	.	.	.	.	.	.
!	!	!	!	!	!	!	!	!	!LO:SIC:v:s=16dd#\JJ	!	!	!	!	!	!	!	!	!	!	!	!	!	!
.	.	.	.	.	.	.	16a/JJ	.	16dd\JJ	.	.	.	.	.	.	.	.	.	.	.	.	.	.
!	!	!	!	!	!	!	!LO:LB:g=original	!	!	!	!	!	!	!	!	!	!	!	!	!	!	!	!
8f#/ 8a	.	.	.	8r	.	.	16r	.	16r	.	.	.	.	.	.	8r	.	.	.	.	.	.	.
!	!	!	!	!	!	!	!	!	!LO:SIC:v:s=16dd#\LL	!	!	!	!	!	!	!	!	!	!	!	!	!	!
.	.	.	.	.	.	.	16a/LL	.	16dd\LL	.	.	.	.	.	.	.	.	.	.	.	.	.	.
!	!	!	!	!	!	!	!	!	!LO:SIC:v:s=16dd#\	!	!	!	!	!	!	!	!	!	!	!	!	!	!
8f#/ 8aJ	.	.	.	16dd#\LL	qui	.	16a/	.	16dd\	.	.	.	.	.	.	(16dd#\LL	qui	.	.	.	.	.	.
!	!	!	!	!	!	!	!	!	!LO:SIC:v:s=16dd#\JJ	!	!	!	!	!	!	!	!	!	!	!	!	!	!
.	.	.	.	16ee\JJ	.	.	16a/JJ	.	16dd\JJ	.	.	.	.	.	.	16ee\JJ)	.	.	.	.	.	.	.
!	!	!	!	!	!	!	!	!	!LO:N:vis=8	!	!	!	!	!	!	!	!	!	!	!	!	!	!
8d#X/ 8f#L	.	.	.	8.ff#\L	tol-	.	16r	.	16r	.	.	.	.	.	.	8.ff#\L	tol-	.	.	.	.	.	.
.	.	.	.	.	.	.	16a/LL	.	16ff#\LL	.	.	.	.	.	.	.	.	.	.	.	.	.	.
8d#X/ 8f#	.	.	.	.	.	.	16a/	.	16ff#\	.	.	.	.	.	.	.	.	.	.	.	.	.	.
.	.	.	.	16dd#X\Jk	.	.	16a/JJ	.	16ff#\JJ	.	.	.	.	.	.	16dd#X\Jk	.	.	.	.	.	.	.
!	!	!	!	!	!	!	!	!	!LO:LB:g=original	!	!	!	!	!	!	!	!	!	!	!	!	!	!
8d#X/ 8f#	.	.	.	8b/	-lis	.	16r	.	16r	.	.	.	.	.	.	8b\	-lis	.	.	.	.	.	.
.	.	.	.	.	.	.	16a/LL	.	16ff#\LL|	.	.	.	.	.	.	.	.	.	.	.	.	.	.
8d#X/ 8f#J	.	.	.	8a/	pec-	.	16a/	.	16ff#\|	.	.	.	.	.	.	8a\	pe-	.	.	.	.	.	.
.	.	.	.	.	.	.	16a/JJ	.	16ff#\JJ|	.	.	.	.	.	.	.	.	.	.	.	.	.	.
=8	=8	=8	=8	=8	=8	=8	=8	=8	=8	=8	=8	=8	=8	=8	=8	=8	=8	=8	=8	=8	=8	=8	=8
8e/L	.	.	.	16a/LL	-ca-	.	16r	.	16r	.	.	.	.	.	.	(16a\LL	-ca-	.	.	.	.	.	.
.	.	.	.	16g/JJ	.	.	16g/LL	.	16ee\LL|	.	.	.	.	.	.	16g\JJ)	.	.	.	.	.	.	.
8e/	.	.	.	8g/	-ta	.	16g/	.	16ee\|	.	.	.	.	.	.	8g\	-ta	.	.	.	.	.	.
.	.	.	.	.	.	.	16g/JJ	.	16ee\JJ|	.	.	.	.	.	.	.	.	.	.	.	.	.	.
8e/	.	.	.	8r	.	.	16r	.	16r	.	.	.	.	.	.	8r	.	.	.	.	.	.	.
.	.	.	.	.	.	.	16g/LL	.	16ee\LL|	.	.	.	.	.	.	.	.	.	.	.	.	.	.
8e/J	.	.	.	8g/	qui	.	16g/	.	16ee\|	.	.	.	.	.	.	8g\	qui	.	.	.	.	.	.
.	.	.	.	.	.	.	16g/JJ	.	16ee\JJ|	.	.	.	.	.	.	.	.	.	.	.	.	.	.
8e/ 8gL	.	.	.	16g/LL	tol-	.	16r	.	16r	.	.	.	.	.	.	16g\LL	tol-	.	.	.	.	.	.
.	.	.	.	16cc/JJ	.	.	16g/LL	.	16ee\LL|	.	.	.	.	.	.	16cc\JJ	.	.	.	.	.	.	.
8e/ 8g	.	.	.	4cc/	-lis	.	16g/	.	16ee\|	.	.	.	.	.	.	4cc\	.	.	.	.	.	.	.
.	.	.	.	.	.	.	16g/JJ	.	16ee\JJ|	.	.	.	.	.	.	.	.	.	.	.	.	.	.
8e/ 8g	.	.	.	.	.	.	16r	.	16r	.	.	.	.	.	.	.	.	.	.	.	.	.	.
.	.	.	.	.	.	.	16g/LL	.	16ee\LL|	.	.	.	.	.	.	.	.	.	.	.	.	.	.
8e/ 8gJ	.	.	.	8cc/	pec-	.	16g/	.	16ee\|	.	.	.	.	.	.	8cc\	-lis	.	.	.	.	.	.
.	.	.	.	.	.	.	16g/JJ	.	16ee\JJ|	.	.	.	.	.	.	.	.	.	.	.	.	.	.
=9	=9	=9	=9	=9	=9	=9	=9	=9	=9	=9	=9	=9	=9	=9	=9	=9	=9	=9	=9	=9	=9	=9	=9
!	!	!	!	!LO:N:vis=8.	!	!	!	!	!	!	!	!	!	!	!	!LO:LB:g=original	!	!	!	!	!	!	!
8f#/ 8aL	.	.	.	8cc/L	-ca-	.	16r	.	16r	.	.	.	.	1r	.	8.cc\L	pec-	00r	00r	.	.	.	.
.	.	.	.	.	.	.	16a/LL	.	16ee\LL	.	.	.	.	.	.	.	.	.	.	.	.	.	.
8f#/ 8a	.	.	.	16dd/L	-ta	.	16a/	.	16ee\	.	.	.	.	.	.	.	.	.	.	.	.	.	.
.	.	.	.	16ee/JJ	.	.	16a/JJ	.	16ee\JJ	.	.	.	.	.	.	32dd\LL	.	.	.	.	.	.	.
.	.	.	.	.	.	.	.	.	.	.	.	.	.	.	.	32ee\JJJ	.	.	.	.	.	.	.
8f#/ 8a	.	.	.	8dd/	.	.	16r	.	16r	.	.	.	.	.	.	8dd\L|	-ca-	.	.	.	.	.	.
.	.	.	.	.	.	.	16a/LL	.	16ddn\LL|	.	.	.	.	.	.	.	.	.	.	.	.	.	.
8f#/ 8aJ	.	.	.	8cc/	.	.	16a/	.	16cc\	.	.	.	.	.	.	8cc\J|	-ta	.	.	.	.	.	.
.	.	.	.	.	.	.	16a/JJ	.	16b\JJ	.	.	.	.	.	.	.	.	.	.	.	.	.	.
8g/L	.	.	.	16a#X/LL	mun-	.	16r	.	16r	.	.	.	.	.	.	(16a#X\LL	mun-	.	.	.	.	.	.
.	.	.	.	16b/JJ	.	.	16g/LL	.	16b/LL	.	.	.	.	.	.	16b\JJ)	.	.	.	.	.	.	.
8g/	.	.	.	8b/	-di	.	16g/	.	16b/	.	.	.	.	.	.	8b\	-di	.	.	.	.	.	.
.	.	.	.	.	.	.	16g/JJ	.	16b/JJ	.	.	.	.	.	.	.	.	.	.	.	.	.	.
8g/	.	.	.	8r	.	.	16r	.	16r	.	.	.	.	.	.	8r	.	.	.	.	.	.	.
.	.	.	.	.	.	.	16g/LL	.	16b/LL	.	.	.	.	.	.	.	.	.	.	.	.	.	.
8g/J	.	.	.	8b/	qui	.	16g/	.	16b/	.	.	.	.	.	.	8b\	qui	.	.	.	.	.	.
.	.	.	.	.	.	.	16g/JJ	.	16b/JJ	.	.	.	.	.	.	.	.	.	.	.	.	.	.
=10	=10	=10	=10	=10	=10	=10	=10	=10	=10	=10	=10	=10	=10	=10	=10	=10	=10	=10	=10	=10	=10	=10	=10
*^	*	*	*	*	*	*	*	*	*	*	*	*	*	*	*	*	*	*	*	*	*	*	*
!LO:LB:g=original	!	!	!	!	!LO:LB:g=original	!	!	!	!	!	!	!	!	!	!LO:TX:t=P:problem:brak taktów nr 10-11	!	!	!	!	!	!	!	!	!
8g/ 8bL	2rayy	.	.	.	16b\LL	tol-	.	16r	.	16r	.	.	.	.	1ryy	.	(16b\LL	tol-	.	.	.	.	.	.
.	.	.	.	.	16ee\JJ	.	.	16b\LL	.	16ee\LL	.	.	.	.	.	.	16ee\JJ)	.	.	.	.	.	.	.
8g/ 8b	.	.	.	.	4ee\	-lis	.	16b\	.	16ee\	.	.	.	.	.	.	4ee\	-lis	.	.	.	.	.	.
.	.	.	.	.	.	.	.	16b\JJ	.	16ee\JJ	.	.	.	.	.	.	.	.	.	.	.	.	.	.
8g/ 8b	.	.	.	.	.	.	.	16r	.	16r	.	.	.	.	.	.	.	.	.	.	.	.	.	.
.	.	.	.	.	.	.	.	16b\LL	.	16ee\LL	.	.	.	.	.	.	.	.	.	.	.	.	.	.
8g/ 8bJ	.	.	.	.	8ddn\	pec-	.	16b\	.	16dd\	.	.	.	.	.	.	8dd\	pec-	.	.	.	.	.	.
.	.	.	.	.	.	.	.	16b\JJ	.	16dd\JJ	.	.	.	.	.	.	.	.	.	.	.	.	.	.
*Xtremolo	*	*	*	*	*	*	*	*	*	*	*	*	*	*	*	*	*	*	*	*	*	*	*	*
8a/L	8g\L	.	.	.	(16cc#\LL	-ca-	.	16r	.	16r	.	.	.	.	.	.	(16cc#X\LL	-ca-	.	.	.	.	.	.
.	.	.	.	.	16dd\JJ)	.	.	16a/LL	.	16dd\LL	.	.	.	.	.	.	16dd\JJ)	.	.	.	.	.	.	.
!	!	!	!	!	!	!	!	!	!	!	!	!	!	!	!	!	!LO:N:vis=4	!	!	!	!	!	!	!
8a/J	8f#\J	.	.	.	8dd\|	-ta	.	16a/	.	16dd\	.	.	.	.	.	.	8dd\	-ta	.	.	.	.	.	.
.	.	.	.	.	.	.	.	16a/JJ	.	16dd\JJ	.	.	.	.	.	.	.	.	.	.	.	.	.	.
8f#/L 8a	4rdyy	.	.	.	8r	.	.	16r	.	16r	.	.	.	.	.	.	8r	.	.	.	.	.	.	.
.	.	.	.	.	.	.	.	16a/LL	.	16dd\LL	.	.	.	.	.	.	.	.	.	.	.	.	.	.
8f#/J 8a	.	.	.	.	8a/	qui	.	16a/	.	16dd\	.	.	.	.	.	.	8a\	qui	.	.	.	.	.	.
.	.	.	.	.	.	.	.	16a/JJ	.	16dd\JJ	.	.	.	.	.	.	.	.	.	.	.	.	.	.
=11	=11	=11	=11	=11	=11	=11	=11	=11	=11	=11	=11	=11	=11	=11	=11	=11	=11	=11	=11	=11	=11	=11	=11	=11
!	!	!	!	!	!	!	!	!LO:LB:g=original	!	!	!	!	!	!	!	!	!	!	!	!	!	!	!	!
8fX/L 8a	2rfyy	.	.	.	16a/LL	tol-	.	16r	.	16r	.	00r	.	.	1ryy	.	16a\LL	.	.	.	1r	.	1r	.
.	.	.	.	.	16dd/JJ	.	.	16a/LL	.	16dd\LL	.	.	.	.	.	.	16dd\JJ	.	.	.	.	.	.	.
8f/ 8a	.	.	.	.	4dd/	-lis	.	16a/	.	16dd\	.	.	.	.	.	.	4dd\	tol-	.	.	.	.	.	.
.	.	.	.	.	.	.	.	16a/JJ	.	16dd\JJ	.	.	.	.	.	.	.	.	.	.	.	.	.	.
8f/ 8a	.	.	.	.	.	.	.	16r	.	16r	.	.	.	.	.	.	.	.	.	.	.	.	.	.
.	.	.	.	.	.	.	.	16a/LL	.	16dd\LL	.	.	.	.	.	.	.	.	.	.	.	.	.	.
8f/J 8a	.	.	.	.	8ccnX/	pec-	.	16a/	.	16ccn\	.	.	.	.	.	.	8ccn\	-lis	.	.	.	.	.	.
.	.	.	.	.	.	.	.	16a/JJ	.	16cc\JJ	.	.	.	.	.	.	.	.	.	.	.	.	.	.
8g/L	8f\L	.	.	.	16b/LL	-ca-	.	16r	.	16r	.	.	.	.	.	.	(16b\LL	pec-	.	.	.	.	.	.
.	.	.	.	.	16cc/JJ	.	.	16g/LL	.	16cc\LL	.	.	.	.	.	.	16cc\JJ)	-ca-	.	.	.	.	.	.
!	!	!	!	!	!	!	!	!	!	!	!	!	!	!	!	!	!LO:N:vis=4	!	!	!	!	!	!	!
!	!	!	!	!	!	!	!	!	!	!	!	!	!	!	!	!	!LO:SIC:v:s=8cc\	!	!	!	!	!	!	!
8g/J	8e\J	.	.	.	8cc/	-ta	.	16g/	.	16cc\	.	.	.	.	.	.	8dd\	-ta	.	.	.	.	.	.
.	.	.	.	.	.	.	.	16g/JJ	.	16cc\JJ	.	.	.	.	.	.	.	.	.	.	.	.	.	.
!	!	!	!	!	!	!	!	!	!	!LO:LB:g=original	!	!	!	!	!	!	!	!	!	!	!	!	!	!
8g/	8e\L	.	.	.	8r	.	.	16r	.	16r	.	.	.	.	.	.	8r	.	.	.	.	.	.	.
.	.	.	.	.	.	.	.	16g/LL	.	16cc\LL|	.	.	.	.	.	.	.	.	.	.	.	.	.	.
8r	8e-X\J	.	.	.	8g/ 8cc	pec-	.	16g/	.	16cc\|	.	.	.	.	.	.	8dd\	pec-	.	.	.	.	.	.
.	.	.	.	.	.	.	.	16g/JJ	.	16cc\JJ|	.	.	.	.	.	.	.	.	.	.	.	.	.	.
*v	*v	*	*	*	*	*	*	*	*	*	*	*	*	*	*	*	*	*	*	*	*	*	*	*
=12	=12	=12	=12	=12	=12	=12	=12	=12	=12	=12	=12	=12	=12	=12	=12	=12	=12	=12	=12	=12	=12	=12	=12
*	*	*	*	*^	*	*	*	*	*	*	*	*	*	*	*	*	*	*	*	*	*	*	*
*clefF4	*	*	*	*	*	*	*	*	*	*	*	*	*	*	*	*	*	*	*	*	*	*	*	*
!	!	!	!	!	!	!	!	!	!	!	!	!	!	!	!	!	!	!	!	!	!	!LO:DY:a:t=Pia	!	!LO:DY:a:t=Pia
8d\L	.	.	.	2cc/	8f#\L	-ca-	.	16f#/LL	.	2cc\	.	.	.	.	4cc\	pec-	2cc\	-ca-	.	.	2aa\	p	2ccc\	p
!	!	!	!	!	!	!	!	!	!	!	!	!	!	!	!	!	!	!	!	!	!	!LO:DY:b:t=Piano	!	!
.	.	.	.	.	.	.	.	.	.	.	.	.	.	.	.	.	.	.	.	.	.	p	.	.
!	!	!	!	!	!	!	!	!	!	!	!	!	!	!	!	!	!	!	!	!	!	!	!	!LO:DY:b:t=piano
.	.	.	.	.	.	.	.	.	.	.	.	.	.	.	.	.	.	.	.	.	.	.	.	p
.	.	.	.	.	.	.	.	16f#/	.	.	.	.	.	.	.	.	.	.	.	.	.	.	.	.
8e-X\J	.	.	.	.	8g\J	.	.	16g/	.	.	.	.	.	.	.	.	.	.	.	.	.	.	.	.
.	.	.	.	.	.	.	.	16g/JJ	.	.	.	.	.	.	.	.	.	.	.	.	.	.	.	.
8d\L	.	.	.	.	8f#\L	.	.	16f#/LL	.	.	.	.	.	.	4cc\	-ca-	.	.	.	.	.	.	.	.
.	.	.	.	.	.	.	.	16f#/	.	.	.	.	.	.	.	.	.	.	.	.	.	.	.	.
8e-\J	.	.	.	.	8g\J	.	.	16g/	.	.	.	.	.	.	.	.	.	.	.	.	.	.	.	.
.	.	.	.	.	.	.	.	16g/JJ	.	.	.	.	.	.	.	.	.	.	.	.	.	.	.	.
*tremolo	*	*	*	*	*	*	*	*	*	*	*	*	*	*	*	*	*	*	*	*	*	*	*	*
8D\ 8dL	.	.	.	8.a/L 8.cc	2rayy	.	.	8f#/L	.	8.cc\L	.	.	.	.	8.a\	-ta	8.cc\	-ta	.	.	8.aa\L	.	8.ccc\L	.
8D\ 8d	.	.	.	.	.	.	.	8ccn/	.	.	.	.	.	.	.	.	.	.	.	.	.	.	.	.
!	!	!	!	!	!	!	!	!	!	!	!	!	!	!	!	!	!	!	!	!	!LO:SIC:v:s=16ccc\Jk	!	!	!
.	.	.	.	16cc/Jk 16ee	.	.	.	.	.	16ee\Jk	.	.	.	.	16cc\	pec-	16ee\	pec-	.	.	16ddd\Jk	.	16eee\Jk	.
8D\ 8d	.	.	.	8b/ 8dd	.	-ta	.	8b/	.	8dd\L	.	.	.	.	8b\	-ca-	8dd\	-ca-	.	.	8bb\L	.	8ddd\L	.
8D\ 8dJ	.	.	.	8a/ 8cc	.	pec-	.	8a/J	.	8cc\J	.	.	.	.	8a\	-ta	8cc\	-ta	.	.	8aa\J	.	8ccc\J	.
*	*	*	*	*v	*v	*	*	*	*	*	*	*	*	*	*	*	*	*	*	*	*	*	*	*
=13	=13	=13	=13	=13	=13	=13	=13	=13	=13	=13	=13	=13	=13	=13	=13	=13	=13	=13	=13	=13	=13	=13	=13
!	!	!	!	!	!	!	!	!	!	!	!	!	!	!	!	!LO:LB:g=original	!	!	!	!	!	!	!
8D\ 8dL	.	.	.	8.g/L 8.b	-ca-	.	8.g/L	.	8.b\L	.	.	.	.	8.g\L	pec-	8.b\L	pec-	1r	1r	8.gg\L	.	8.bb\L	.
8D\ 8d	.	.	.	.	.	.	.	.	.	.	.	.	.	.	.	.	.	.	.	.	.	.	.
.	.	.	.	16b/Jk 16dd	.	.	16b/Jk	.	16dd\Jk	.	.	.	.	16b\Jk	.	16dd\Jk	.	.	.	16bb\Jk	.	16ddd\Jk	.
8D\ 8d	.	.	.	8a/ 8cc	.	.	8a/L	.	8cc\L	.	.	.	.	8a\	-ca-	8cc\|	-ca-	.	.	8aa\L	.	8ccc\L	.
8D\ 8dJ	.	.	.	8g/ 8b	-ta	.	8g/J	.	8b\J	.	.	.	.	8g\	-ta	8b\|	-ta	.	.	8gg\J	.	8bb\J	.
!	!	!	!	!	!	!	!	!	!	!	!	!	!	!	!	!	!	!	!	!	!	!LO:LB:g=original	!
8D\ 8dL	.	.	.	8g/L 8b	mun-	.	8g/L	.	8b\L	.	.	.	.	(8g\L	mun-	(8b\L	mun-	.	.	(8gg\L	.	8bb\L	.
8D\ 8d	.	.	.	8f#/J 8a	.	.	8f#/J	.	8a\J	.	.	.	.	8f#\J)	.	8a\J)	.	.	.	8ff#\J)	.	8aa\J	.
8D\ 8d	.	.	.	4f#/ 4a	-di	.	4f#/	.	4a\	.	.	.	.	4f#\	-di	4a\	-di	.	.	4ff#\	.	4aa\	.
8D\ 8dJ	.	.	.	.	.	.	.	.	.	.	.	.	.	.	.	.	.	.	.	.	.	.	.
*Xtremolo	*	*	*	*	*	*	*	*	*	*	*	*	*	*	*	*	*	*	*	*	*	*	*
=14	=14	=14	=14	=14	=14	=14	=14	=14	=14	=14	=14	=14	=14	=14	=14	=14	=14	=14	=14	=14	=14	=14	=14
!LO:LB:g=original	!	!	!	!LO:LB:g=original	!	!	!	!	!	!	!	!	!	!LO:LB:g=original	!	!	!	!	!	!	!	!	!
!	!	!	!	!	!	!	!	!	!	!LO:DY:a:t=for	!	!	!	!LO:TX:a:t=3	!	!LO:TX:a:t=3	!	!	!	!LO:LB:g=original	!	!	!
4D\ 4d	x 5	.	.	1ryy	.	.	16d/LL	.	16f#/LL	f	.	.	.	0r	.	0r	.	2d/	2a\	2ff#\	.	2aa\	.
!	!	!	!	!	!	!	!	!	!	!LO:DY:b:t=forte	!	!	!	!	!	!	!	!	!	!	!	!	!
.	.	.	.	.	.	.	16f#/	.	16a/	f	.	.	.	.	.	.	.	.	.	.	.	.	.
.	.	.	.	.	.	.	16f#/	.	16a/	.	.	.	.	.	.	.	.	.	.	.	.	.	.
.	.	.	.	.	.	.	16f#/JJ	.	16a/JJ	.	.	.	.	.	.	.	.	.	.	.	.	.	.
4D\ 4d	x 7	.	.	.	.	.	16f#/LL	.	16a/LL	.	.	.	.	.	.	.	.	.	.	.	.	.	.
.	.	.	.	.	.	.	16a/	.	16cc/	.	.	.	.	.	.	.	.	.	.	.	.	.	.
.	.	.	.	.	.	.	16a/	.	16cc/	.	.	.	.	.	.	.	.	.	.	.	.	.	.
.	.	.	.	.	.	.	16a/JJ	.	16cc/JJ	.	.	.	.	.	.	.	.	.	.	.	.	.	.
4D\ 4d	x 3	.	.	.	.	.	16a/LL	.	16cc/LL	.	.	.	.	.	.	.	.	2d/	2a\	2ff#\	.	2aa\	.
.	.	.	.	.	.	.	16cc/	.	16ff#/	.	.	.	.	.	.	.	.	.	.	.	.	.	.
.	.	.	.	.	.	.	16cc/	.	16ff#/	.	.	.	.	.	.	.	.	.	.	.	.	.	.
.	.	.	.	.	.	.	16cc/JJ	.	16ff#/JJ	.	.	.	.	.	.	.	.	.	.	.	.	.	.
4D\ 4d	x 5	.	.	.	.	.	16cc/LL	.	16ff#\LL|	.	.	.	.	.	.	.	.	.	.	.	.	.	.
.	.	.	.	.	.	.	16ff#/	.	16aa\|	.	.	.	.	.	.	.	.	.	.	.	.	.	.
.	.	.	.	.	.	.	16ff#/	.	16aa\|	.	.	.	.	.	.	.	.	.	.	.	.	.	.
.	.	.	.	.	.	.	16ff#/JJ	.	16aa\JJ|	.	.	.	.	.	.	.	.	.	.	.	.	.	.
=15	=15	=15	=15	=15	=15	=15	=15	=15	=15	=15	=15	=15	=15	=15	=15	=15	=15	=15	=15	=15	=15	=15	=15
!	!	!	!	!	!	!	!	!	!	!	!	!	!	!	!	!	!	!LO:LB:g=original	!	!	!	!	!
4D\ 4d	x 4	.	.	1ryy	.	.	16B/LL	.	16g\LL	.	0r	.	.	.	.	.	.	2g\	2b\	2gg\	.	2bb\	.
.	.	.	.	.	.	.	16g/	.	16b\	.	.	.	.	.	.	.	.	.	.	.	.	.	.
.	.	.	.	.	.	.	16g/	.	16b\	.	.	.	.	.	.	.	.	.	.	.	.	.	.
.	.	.	.	.	.	.	16g/JJ	.	16b\JJ	.	.	.	.	.	.	.	.	.	.	.	.	.	.
!	!	!	!	!	!	!	!LO:LB:g=original	!	!	!	!	!	!	!	!	!	!	!	!	!	!	!	!
4D\ 4d	x 8	.	.	.	.	.	16g\LL	.	16b\LL	.	.	.	.	.	.	.	.	.	.	.	.	.	.
.	.	.	.	.	.	.	16b\	.	16dd\	.	.	.	.	.	.	.	.	.	.	.	.	.	.
.	.	.	.	.	.	.	16b\	.	16dd\	.	.	.	.	.	.	.	.	.	.	.	.	.	.
.	.	.	.	.	.	.	16b\JJ	.	16dd\JJ|	.	.	.	.	.	.	.	.	.	.	.	.	.	.
4D\ 4d	x 4	.	.	.	.	.	16b\LL	.	16dd\LL	.	.	.	.	.	.	.	.	2g\	2b\	2gg\	.	2bb\	.
.	.	.	.	.	.	.	16dd\	.	16gg\	.	.	.	.	.	.	.	.	.	.	.	.	.	.
.	.	.	.	.	.	.	16dd\	.	16gg\	.	.	.	.	.	.	.	.	.	.	.	.	.	.
.	.	.	.	.	.	.	16dd\JJ	.	16gg\JJ|	.	.	.	.	.	.	.	.	.	.	.	.	.	.
4D\ 4d	x 6	.	.	.	.	.	16dd\LL	.	16gg\LL	.	.	.	.	.	.	.	.	.	.	.	.	.	.
.	.	.	.	.	.	.	16gg\	.	16bb\	.	.	.	.	.	.	.	.	.	.	.	.	.	.
.	.	.	.	.	.	.	16gg\	.	16bb\	.	.	.	.	.	.	.	.	.	.	.	.	.	.
.	.	.	.	.	.	.	16gg\JJ	.	16bb\JJ	.	.	.	.	.	.	.	.	.	.	.	.	.	.
=16	=16	=16	=16	=16	=16	=16	=16	=16	=16	=16	=16	=16	=16	=16	=16	=16	=16	=16	=16	=16	=16	=16	=16
4D\ 4d	x 7	.	.	1ryy	.	.	16f#/LL	.	16a\LL	.	.	.	.	1r	.	1r	.	2a\	2cc\	2aa\	.	2ccc\	.
.	.	.	.	.	.	.	16a/	.	16cc\	.	.	.	.	.	.	.	.	.	.	.	.	.	.
.	.	.	.	.	.	.	16a/	.	16cc\	.	.	.	.	.	.	.	.	.	.	.	.	.	.
.	.	.	.	.	.	.	16a/JJ	.	16cc\JJ	.	.	.	.	.	.	.	.	.	.	.	.	.	.
4D\ 4d	x 3	.	.	.	.	.	16a/LL	.	16cc\LL	.	.	.	.	.	.	.	.	.	.	.	.	.	.
.	.	.	.	.	.	.	16cc/	.	16ff#\	.	.	.	.	.	.	.	.	.	.	.	.	.	.
.	.	.	.	.	.	.	16cc/	.	16ff#\	.	.	.	.	.	.	.	.	.	.	.	.	.	.
.	.	.	.	.	.	.	16cc/JJ	.	16ff#\JJ	.	.	.	.	.	.	.	.	.	.	.	.	.	.
4D\ 4d	x 5	.	.	.	.	.	16cc/LL	.	16ff#\LL	.	.	.	.	.	.	.	.	2a\	2cc\	2aa\	.	2ccc\	.
.	.	.	.	.	.	.	16ff#/	.	16aa\	.	.	.	.	.	.	.	.	.	.	.	.	.	.
.	.	.	.	.	.	.	16ff#/	.	16aa\	.	.	.	.	.	.	.	.	.	.	.	.	.	.
.	.	.	.	.	.	.	16ff#/JJ	.	16aa\JJ	.	.	.	.	.	.	.	.	.	.	.	.	.	.
!	!	!	!	!	!	!	!	!	!LO:LB:g=original	!	!	!	!	!	!	!	!	!	!	!	!	!	!
4D\ 4d	x 7	.	.	.	.	.	16ff#\LL	.	16aa\LL	.	.	.	.	.	.	.	.	.	.	.	.	.	.
.	.	.	.	.	.	.	16aa\	.	16ccc\	.	.	.	.	.	.	.	.	.	.	.	.	.	.
.	.	.	.	.	.	.	16aa\	.	16ccc\	.	.	.	.	.	.	.	.	.	.	.	.	.	.
.	.	.	.	.	.	.	16aa\JJ	.	16ccc\JJ	.	.	.	.	.	.	.	.	.	.	.	.	.	.
=17	=17	=17	=17	=17	=17	=17	=17	=17	=17	=17	=17	=17	=17	=17	=17	=17	=17	=17	=17	=17	=17	=17	=17
!	!	!	!	!LO:N:vis=1	!	!	!	!	!	!	!	!	!	!LO:N:vis=1	!	!LO:N:vis=1	!	!	!LO:LB:g=original	!	!	!	!
4D\ 4d	.	.	.	2r	.	.	16aa\LL	.	16ccc\LL	.	2r	.	.	2r	.	2r	.	4d/	4cc\	4gg\	.	4ccc\	.
.	.	.	.	.	.	.	16gg\	.	16bb\	.	.	.	.	.	.	.	.	.	.	.	.	.	.
.	.	.	.	.	.	.	16gg\	.	16bb\	.	.	.	.	.	.	.	.	.	.	.	.	.	.
.	.	.	.	.	.	.	16ff#\JJ	.	16aa\JJ	.	.	.	.	.	.	.	.	.	.	.	.	.	.
4D\ 4d	.	.	.	.	.	.	16ff#\LL	.	16aa\LL	.	.	.	.	.	.	.	.	4r	4r	4r	.	4r	.
.	.	.	.	.	.	.	16ee\	.	16gg\	.	.	.	.	.	.	.	.	.	.	.	.	.	.
.	.	.	.	.	.	.	16ee\	.	16gg\	.	.	.	.	.	.	.	.	.	.	.	.	.	.
.	.	.	.	.	.	.	16dd\JJ	.	16ff#\JJ	.	.	.	.	.	.	.	.	.	.	.	.	.	.
4D\ 4d	.	.	.	4r	.	.	16dd\LL	.	16ff#\LL	.	4r	.	.	4r	.	4r	.	2r	2r	2r	.	2r	.
.	.	.	.	.	.	.	16cc\	.	16ee\	.	.	.	.	.	.	.	.	.	.	.	.	.	.
.	.	.	.	.	.	.	16cc\	.	16ee\	.	.	.	.	.	.	.	.	.	.	.	.	.	.
.	.	.	.	.	.	.	16b\JJ	.	16dd\JJ	.	.	.	.	.	.	.	.	.	.	.	.	.	.
16r	.	.	.	16r	.	.	8b/L	.	8dd\L	.	16r	.	.	8r	.	8r	.	.	.	.	.	.	.
16D\LL	.	.	.	16dd/	.	.	.	.	.	.	16D\	pec-	.	.	.	.	.	.	.	.	.	.	.
16E\	.	.	.	16r	.	.	8a/J	.	8cc\J	.	16E\	-ca-	.	8a\	pec-	8cc\	pec-	.	.	.	.	.	.
16F#\JJ	.	.	.	16a/ 16cc	pec-	.	.	.	.	.	16F#\	-ta	.	.	.	.	.	.	.	.	.	.	.
=18	=18	=18	=18	=18	=18	=18	=18	=18	=18	=18	=18	=18	=18	=18	=18	=18	=18	=18	=18	=18	=18	=18	=18
!LO:LB:g=original	!	!	!	!LO:LB:g=original	!	!	!	!	!	!LO:DY:b:t=piano	!	!	!	!	!	!	!	!	!	!	!	!	!
4G\	.	.	.	16g/ 16b	-ca-	.	16g/LL	.	16b\LL	p	8G\	mun-	.	16g\	-ca-	16b\|	-ca-	4r	4r	4gg\	.	4bb\	.
.	.	.	.	16b/ 16dd	-ta	.	16b/	.	16dd\	.	.	.	.	16b\	-ta	16dd\	-ta	.	.	.	.	.	.
.	.	.	.	16cc/LL 16ee	mun-	.	16cc/	.	16ee\	.	8G\	-di	.	(16cc\LL	mun-	(16ee\LL	mun-	.	.	.	.	.	.
.	.	.	.	16b/JJ 16dd	.	.	16b/JJ	.	16dd\JJ	.	.	.	.	16b\JJ)	.	16dd\JJ)	.	.	.	.	.	.	.
!LO:N:vis=8	!	!	!	!	!	!	!	!	!	!	!	!	!	!	!	!	!	!	!	!	!	!	!
16r	.	.	.	8a/ 8cc	-di	.	4a/	.	4cc\	.	16r	.	.	8a\	-di	8cc\	-di	8d/L	8a\L	4aa\	.	4ccc\	.
16D\LL	.	.	.	.	.	.	.	.	.	.	16D\	pec-	.	.	.	.	.	.	.	.	.	.	.
16E\	.	.	.	16r	.	.	.	.	.	.	16E\	-ca-	.	16r	.	16r	.	8d/J	8a\J	.	.	.	.
16F#\JJ	.	.	.	16a/ 16cc	pec-	.	.	.	.	.	16F#\	-ta	.	16a\	pec-	16cc\	pec-	.	.	.	.	.	.
4G\	.	.	.	16g/ 16b	-ca-	.	16g/LL	.	16b\LL	.	8G\	mun-	.	16g\	-ca-	16b\	-ca-	8g\	8b\	4gg\	.	4bb\	.
.	.	.	.	16b/ 16dd	-ta	.	16b/	.	16dd\	.	.	.	.	16b\	-ta	16dd\	-ta	.	.	.	.	.	.
.	.	.	.	16cc/LL 16ee	mun-	.	16cc/	.	16ee\	.	8G\	-di	.	(16cc\LL	mun-	(16ee\LL	mun-	8r	8r	.	.	.	.
.	.	.	.	16b/JJ 16dd	.	.	16b/JJ	.	16dd\JJ	.	.	.	.	16b\JJ)	.	16dd\JJ)	.	.	.	.	.	.	.
!	!	!	!	!	!	!	!	!	!	!	!LO:LB:g=original	!	!	!	!	!	!	!	!	!	!	!	!
16r	.	.	.	8a/ 8cc	-di	.	4a/	.	4cc\	.	16r	.	.	8a\	-di	8cc\	-di	8d/L	8a\L	4aa\	.	4ccc\	.
16D\LL	.	.	.	.	.	.	.	.	.	.	16D\	pec-	.	.	.	.	.	.	.	.	.	.	.
16E\	.	.	.	16r	.	.	.	.	.	.	16E\	-ca-	.	16r	.	16r	.	8d/J	8a\J	.	.	.	.
16F#\JJ	.	.	.	16a/ 16cc	pec-	.	.	.	.	.	16F#\	-ta	.	16a\	pec-	16cc\	pec-	.	.	.	.	.	.
=19	=19	=19	=19	=19	=19	=19	=19	=19	=19	=19	=19	=19	=19	=19	=19	=19	=19	=19	=19	=19	=19	=19	=19
!LO:TX:t=P:problem:mixed beam	!	!	!	!	!	!LO:DY:a:t=Piano	!	!	!	!	!	!	!	!	!	!	!	!	!	!	!	!	!
8G\L	.	.	.	16g/LL 16b	-ca-	p	16g/LL	.	16b\LL	.	8G\	pec-	.	(16g\LL	-ca-	16b\LL	-ca-	8g\	8b\	8gg\L	.	(8bb\L	.
.	.	.	.	16b/JJ 16dd	.	.	16b/	.	16dd\	.	.	.	.	16b\JJ)	.	16dd\JJ	.	.	.	.	.	.	.
8c\	.	.	.	16cc/ 16ee	-ta	.	16cc/	.	16ee\	.	16c\	-ca-	.	(16cc\LL	-ta	16ee\	-ta	8r	8r	8aa\	.	8ccc\)	.
.	.	.	.	16a/ 16cc	mun-	.	16b/JJ	.	16cc\JJ	.	16c\	-ta	.	16a\JJ)	.	16cc\	.	.	.	.	.	.	.
!	!	!	!	!	!	!	!LO:LB:g=original	!	!	!	!LO:TX:t=P:problem:mixed beam	!	!	!	!	!LO:LB:g=original	!	!	!	!	!	!	!
8d\	.	.	.	8g/L 8b	-di	.	8g/L	.	8b/L	.	(8d\L	mun-	.	(8g\L	mun-	(8b\L	mun-	4r	4r	8gg\	.	(8bb\	.
8D/J	.	.	.	8f#/J 8a	.	.	8f#/J	.	8a/J	.	8D/J)	.	.	8f#\J)	.	8a\J)	.	.	.	8ff#\J	.	8aa\J)	.
!	!	!	!	!LO:TX:a:t=Solo:rj	!	!	!	!	!	!	!	!	!	!	!	!	!	!	!	!	!	!LO:LB:g=original	!
4G\	.	.	.	(32g/LLL	.	.	8g/	.	8g/	.	4G\	-di	.	4g\	-di	4g\	-di	2r	2r	4gg\	.	4bb\	.
.	.	.	.	32b/	.	.	.	.	.	.	.	.	.	.	.	.	.	.	.	.	.	.	.
.	.	.	.	32a/	.	.	.	.	.	.	.	.	.	.	.	.	.	.	.	.	.	.	.
.	.	.	.	32cc/JJJ)	.	.	.	.	.	.	.	.	.	.	.	.	.	.	.	.	.	.	.
.	.	.	.	(32b/LLL	.	.	8r	.	8r	.	.	.	.	.	.	.	.	.	.	.	.	.	.
.	.	.	.	32dd/	.	.	.	.	.	.	.	.	.	.	.	.	.	.	.	.	.	.	.
.	.	.	.	32cc/	.	.	.	.	.	.	.	.	.	.	.	.	.	.	.	.	.	.	.
.	.	.	.	32ee/JJJ)	.	.	.	.	.	.	.	.	.	.	.	.	.	.	.	.	.	.	.
4G\	.	.	.	16b\LL 16dd	.	.	16r	.	16r	.	4r	.	.	4r	.	4r	.	.	.	4r	.	4r	.
!	!	!	!	!LO:TX:t=P:problem:obiegnik górny	!	!	!	!LO:DY:b:t=piano.	!	!	!	!	!	!	!	!	!	!	!	!	!	!	!
.	.	.	.	16b\ 16ddSSS	.	.	16b\LL	p	16dd\LL	.	.	.	.	.	.	.	.	.	.	.	.	.	.
.	.	.	.	16cc\ 16ee	.	.	16cc\	.	16ee\	.	.	.	.	.	.	.	.	.	.	.	.	.	.
.	.	.	.	16b\JJ 16dd	.	.	16b\JJ	.	16dd\JJ	.	.	.	.	.	.	.	.	.	.	.	.	.	.
=20	=20	=20	=20	=20	=20	=20	=20	=20	=20	=20	=20	=20	=20	=20	=20	=20	=20	=20	=20	=20	=20	=20	=20
!LO:LB:g=original	!	!	!	!LO:LB:g=original	!	!	!	!	!	!	!	!	!	!LO:LB:g=original	!	!	!	!	!	!	!	!	!
!	!	!	!	!	!	!	!	!	!	!	!LO:TX:a:t=5.	!	!	!LO:TX:a:t=8	!	!LO:TX:a:t=10	!	!LO:TX:a:t=6	!LO:TX:a:t=6	!LO:TX:a:t=5	!	!LO:TX:a:t=5	!
4d\	.	.	.	(32f#/LLL	.	.	4r	.	4r	.	00r	.	.	00r	.	00r	.	00r	00r	00r	.	00r	.
.	.	.	.	32a/)	.	.	.	.	.	.	.	.	.	.	.	.	.	.	.	.	.	.	.
.	.	.	.	(32g/	.	.	.	.	.	.	.	.	.	.	.	.	.	.	.	.	.	.	.
.	.	.	.	32b/JJJ)	.	.	.	.	.	.	.	.	.	.	.	.	.	.	.	.	.	.	.
.	.	.	.	(32a/LLL	.	.	.	.	.	.	.	.	.	.	.	.	.	.	.	.	.	.	.
.	.	.	.	32cc/)	.	.	.	.	.	.	.	.	.	.	.	.	.	.	.	.	.	.	.
.	.	.	.	(32b/	.	.	.	.	.	.	.	.	.	.	.	.	.	.	.	.	.	.	.
.	.	.	.	32dd/JJJ)	.	.	.	.	.	.	.	.	.	.	.	.	.	.	.	.	.	.	.
4d\	.	.	.	16a/LL 16cc	.	.	16r	.	16r	.	.	.	.	.	.	.	.	.	.	.	.	.	.
!	!	!	!	!LO:TX:t=P:problem:obiegnik górny	!	!	!	!	!	!	!	!	!	!	!	!	!	!	!	!	!	!	!
.	.	.	.	16a/ 16ccSSs<	.	.	(16a/LL	.	16cc\LL	.	.	.	.	.	.	.	.	.	.	.	.	.	.
.	.	.	.	16b/ 16dd	.	.	16b/	.	16dd\	.	.	.	.	.	.	.	.	.	.	.	.	.	.
.	.	.	.	16a/JJ 16cc	.	.	16a/JJ)	.	16cc\JJ	.	.	.	.	.	.	.	.	.	.	.	.	.	.
16G\LL 16B	.	.	.	32b\LLL	.	.	2r	.	2r	.	.	.	.	.	.	.	.	.	.	.	.	.	.
.	.	.	.	32gg\	.	.	.	.	.	.	.	.	.	.	.	.	.	.	.	.	.	.	.
16d\	.	.	.	32ff#\	.	.	.	.	.	.	.	.	.	.	.	.	.	.	.	.	.	.	.
.	.	.	.	32ee\JJJ	.	.	.	.	.	.	.	.	.	.	.	.	.	.	.	.	.	.	.
16G\ 16B	.	.	.	32dd\LLL	.	.	.	.	.	.	.	.	.	.	.	.	.	.	.	.	.	.	.
.	.	.	.	32ee\	.	.	.	.	.	.	.	.	.	.	.	.	.	.	.	.	.	.	.
16d\JJ	.	.	.	32dd\	.	.	.	.	.	.	.	.	.	.	.	.	.	.	.	.	.	.	.
.	.	.	.	32cc\JJJ	.	.	.	.	.	.	.	.	.	.	.	.	.	.	.	.	.	.	.
*rep	*	*	*	*	*	*	*	*	*	*	*	*	*	*	*	*	*	*	*	*	*	*	*
16G\LL 16B	.	.	.	32dd\LLL	.	.	.	.	.	.	.	.	.	.	.	.	.	.	.	.	.	.	.
.	.	.	.	32gg\	.	.	.	.	.	.	.	.	.	.	.	.	.	.	.	.	.	.	.
16d\	.	.	.	32ff#\	.	.	.	.	.	.	.	.	.	.	.	.	.	.	.	.	.	.	.
.	.	.	.	32ee\JJJ	.	.	.	.	.	.	.	.	.	.	.	.	.	.	.	.	.	.	.
16G\ 16B	.	.	.	32dd\LLL	.	.	.	.	.	.	.	.	.	.	.	.	.	.	.	.	.	.	.
.	.	.	.	32ee\	.	.	.	.	.	.	.	.	.	.	.	.	.	.	.	.	.	.	.
16d\JJ	.	.	.	32dd\	.	.	.	.	.	.	.	.	.	.	.	.	.	.	.	.	.	.	.
*Xrep	*	*	*	*	*	*	*	*	*	*	*	*	*	*	*	*	*	*	*	*	*	*	*
.	.	.	.	32cc\JJJ	.	.	.	.	.	.	.	.	.	.	.	.	.	.	.	.	.	.	.
=21	=21	=21	=21	=21	=21	=21	=21	=21	=21	=21	=21	=21	=21	=21	=21	=21	=21	=21	=21	=21	=21	=21	=21
!	!	!	!	!	!	!	!LO:TX:a:t=1.	!	!LO:TX:a:t=1	!	!	!	!	!	!	!	!	!	!	!	!	!	!
16F#\LL 16A	.	.	.	(32dd\LLL	.	.	1r	.	1r	.	.	.	.	.	.	.	.	.	.	.	.	.	.
.	.	.	.	32ee\	.	.	.	.	.	.	.	.	.	.	.	.	.	.	.	.	.	.	.
16d\	.	.	.	32dd\	.	.	.	.	.	.	.	.	.	.	.	.	.	.	.	.	.	.	.
.	.	.	.	32ee\JJJ)	.	.	.	.	.	.	.	.	.	.	.	.	.	.	.	.	.	.	.
16F#\ 16A	.	.	.	(32ff#\LLL	.	.	.	.	.	.	.	.	.	.	.	.	.	.	.	.	.	.	.
.	.	.	.	32gg\	.	.	.	.	.	.	.	.	.	.	.	.	.	.	.	.	.	.	.
16d\JJ	.	.	.	32ff#\	.	.	.	.	.	.	.	.	.	.	.	.	.	.	.	.	.	.	.
.	.	.	.	32gg\JJJ)	.	.	.	.	.	.	.	.	.	.	.	.	.	.	.	.	.	.	.
*rep	*	*	*	*	*	*	*	*	*	*	*	*	*	*	*	*	*	*	*	*	*	*	*
16F#\LL 16A	.	.	.	(32aa\LLL	.	.	.	.	.	.	.	.	.	.	.	.	.	.	.	.	.	.	.
.	.	.	.	32bb\	.	.	.	.	.	.	.	.	.	.	.	.	.	.	.	.	.	.	.
16d\	.	.	.	32aa\	.	.	.	.	.	.	.	.	.	.	.	.	.	.	.	.	.	.	.
.	.	.	.	32bb\JJJ)	.	.	.	.	.	.	.	.	.	.	.	.	.	.	.	.	.	.	.
16F#\ 16A	.	.	.	16ccc\LL|>	.	.	.	.	.	.	.	.	.	.	.	.	.	.	.	.	.	.	.
!	!	!	!	!LO:TX:t=P:problem:skreślona kreska taktowa	!	!	!	!	!	!	!	!	!	!	!	!	!	!	!	!	!	!	!
16d\JJ	.	.	.	16cc/JJ|	.	.	.	.	.	.	.	.	.	.	.	.	.	.	.	.	.	.	.
*Xrep	*	*	*	*	*	*	*	*	*	*	*	*	*	*	*	*	*	*	*	*	*	*	*
!LO:LB:g=original	!	!	!	!LO:LB:g=original	!	!	!	!	!	!	!	!	!	!	!	!	!	!	!	!	!	!	!
16F#\LL 16A	.	.	.	32cc\LLL	.	.	.	.	.	.	.	.	.	.	.	.	.	.	.	.	.	.	.
.	.	.	.	32b\	.	.	.	.	.	.	.	.	.	.	.	.	.	.	.	.	.	.	.
16d\	.	.	.	32ee\	.	.	.	.	.	.	.	.	.	.	.	.	.	.	.	.	.	.	.
.	.	.	.	32dd\JJ	.	.	.	.	.	.	.	.	.	.	.	.	.	.	.	.	.	.	.
16F#\ 16A	.	.	.	8dd\J	.	.	.	.	.	.	.	.	.	.	.	.	.	.	.	.	.	.	.
16d\JJ	.	.	.	.	.	.	.	.	.	.	.	.	.	.	.	.	.	.	.	.	.	.	.
8r	.	.	.	32ff#\LLL	.	.	.	.	.	.	.	.	.	.	.	.	.	.	.	.	.	.	.
.	.	.	.	32gg\	.	.	.	.	.	.	.	.	.	.	.	.	.	.	.	.	.	.	.
.	.	.	.	32bb\	.	.	.	.	.	.	.	.	.	.	.	.	.	.	.	.	.	.	.
.	.	.	.	32gg\JJJ	.	.	.	.	.	.	.	.	.	.	.	.	.	.	.	.	.	.	.
8B\ 8g	.	.	.	16dd\LL	.	.	.	.	.	.	.	.	.	.	.	.	.	.	.	.	.	.	.
.	.	.	.	16ffX\JJ	.	.	.	.	.	.	.	.	.	.	.	.	.	.	.	.	.	.	.
=22	=22	=22	=22	=22	=22	=22	=22	=22	=22	=22	=22	=22	=22	=22	=22	=22	=22	=22	=22	=22	=22	=22	=22
8c\L 8g	.	.	.	(32dd#X\LLL	.	.	2r	.	2r	.	.	.	.	.	.	.	.	.	.	.	.	.	.
.	.	.	.	32ee\	.	.	.	.	.	.	.	.	.	.	.	.	.	.	.	.	.	.	.
.	.	.	.	32ff#\	.	.	.	.	.	.	.	.	.	.	.	.	.	.	.	.	.	.	.
.	.	.	.	32ee\JJ)	.	.	.	.	.	.	.	.	.	.	.	.	.	.	.	.	.	.	.
8c\J 8g	.	.	.	8ee\J	.	.	.	.	.	.	.	.	.	.	.	.	.	.	.	.	.	.	.
8r	.	.	.	32aa\LLL	.	.	.	.	.	.	.	.	.	.	.	.	.	.	.	.	.	.	.
.	.	.	.	32bb\	.	.	.	.	.	.	.	.	.	.	.	.	.	.	.	.	.	.	.
.	.	.	.	32ccc\	.	.	.	.	.	.	.	.	.	.	.	.	.	.	.	.	.	.	.
.	.	.	.	32aa\JJJ	.	.	.	.	.	.	.	.	.	.	.	.	.	.	.	.	.	.	.
8C/ 8E	.	.	.	32gg\LLL	.	.	.	.	.	.	.	.	.	.	.	.	.	.	.	.	.	.	.
.	.	.	.	32ff#\	.	.	.	.	.	.	.	.	.	.	.	.	.	.	.	.	.	.	.
.	.	.	.	32ee\	.	.	.	.	.	.	.	.	.	.	.	.	.	.	.	.	.	.	.
!	!	!	!	!LO:SIC:v:s=32ddn\JJJ	!	!	!	!	!	!	!	!	!	!	!	!	!	!	!	!	!	!	!
.	.	.	.	32dd#\JJJ	.	.	.	.	.	.	.	.	.	.	.	.	.	.	.	.	.	.	.
8BB/ 8D	.	.	.	32gg\LLL	.	.	8r	.	8r	.	.	.	.	.	.	.	.	.	.	.	.	.	.
!	!	!	!	!LO:SIC:v:s=32ddn\	!	!	!	!	!	!	!	!	!	!	!	!	!	!	!	!	!	!	!
.	.	.	.	32dd#\	.	.	.	.	.	.	.	.	.	.	.	.	.	.	.	.	.	.	.
.	.	.	.	32ddd\	.	.	.	.	.	.	.	.	.	.	.	.	.	.	.	.	.	.	.
!	!	!	!	!LO:SIC:v:s=32dd\	!	!	!	!	!	!	!	!	!	!	!	!	!	!	!	!	!	!	!
.	.	.	.	32dd#\JJJ	.	.	.	.	.	.	.	.	.	.	.	.	.	.	.	.	.	.	.
16r	.	.	.	32ddd\LLL	.	.	16r	.	16r	.	.	.	.	.	.	.	.	.	.	.	.	.	.
!	!	!	!	!LO:SIC:v:s=32ddn\	!	!	!	!	!	!	!	!	!	!	!	!	!	!	!	!	!	!	!
.	.	.	.	32dd#\	.	.	.	.	.	.	.	.	.	.	.	.	.	.	.	.	.	.	.
!	!	!	!	!	!	!	!	!LO:DY:t=po:b	!	!	!	!	!	!	!	!	!	!	!	!	!	!	!
16BB/	.	.	.	32bb\	.	.	(16g/ 16b	p	16b\	.	.	.	.	.	.	.	.	.	.	.	.	.	.
!	!	!	!	!LO:SIC:v:s=32ccn	!	!	!	!	!	!	!	!	!	!	!	!	!	!	!	!	!	!	!
.	.	.	.	32dd#\JJJ	.	.	.	.	.	.	.	.	.	.	.	.	.	.	.	.	.	.	.
16C/LL	.	.	.	32ccc\LLL	.	.	16a/LL)	.	16cc\LL	.	.	.	.	.	.	.	.	.	.	.	.	.	.
!	!	!	!	!LO:SIC:v:s=32ccn	!	!	!	!	!	!	!	!	!	!	!	!	!	!	!	!	!	!	!
.	.	.	.	32dd#\	.	.	.	.	.	.	.	.	.	.	.	.	.	.	.	.	.	.	.
16BB/	.	.	.	32bb\	.	.	16g/J	.	16b\J	.	.	.	.	.	.	.	.	.	.	.	.	.	.
!	!	!	!	!LO:SIC:v:s=32ccn	!	!	!	!	!	!	!	!	!	!	!	!	!	!	!	!	!	!	!
.	.	.	.	32dd#\JJJ	.	.	.	.	.	.	.	.	.	.	.	.	.	.	.	.	.	.	.
16AA/	.	.	.	32aa\LLL	.	.	8f#/J|	.	8a\J	.	.	.	.	.	.	.	.	.	.	.	.	.	.
!	!	!	!	!LO:SIC:v:s=32ccn	!	!	!	!	!	!	!	!	!	!	!	!	!	!	!	!	!	!	!
.	.	.	.	32dd#\	.	.	.	.	.	.	.	.	.	.	.	.	.	.	.	.	.	.	.
16C/JJ	.	.	.	32ccc\	.	.	.	.	.	.	.	.	.	.	.	.	.	.	.	.	.	.	.
!	!	!	!	!LO:SIC:v:s=32ccn	!	!	!	!	!	!	!	!	!	!	!	!	!	!	!	!	!	!	!
.	.	.	.	32dd#\JJJ	.	.	.	.	.	.	.	.	.	.	.	.	.	.	.	.	.	.	.
=23	=23	=23	=23	=23	=23	=23	=23	=23	=23	=23	=23	=23	=23	=23	=23	=23	=23	=23	=23	=23	=23	=23	=23
!	!	!	!	!	!	!	!	!	!LO:LB:g=original	!	!	!	!	!	!	!	!	!	!	!	!	!	!
!	!	!	!	!	!	!	!LO:N:vis=4	!	!LO:N:vis=16	!	!	!	!	!	!	!	!	!	!	!	!	!	!
8BB/	.	.	.	32bb\LLL	.	.	8g/	.	8b/	.	.	.	.	.	.	.	.	.	.	.	.	.	.
.	.	.	.	32dd\	.	.	.	.	.	.	.	.	.	.	.	.	.	.	.	.	.	.	.
.	.	.	.	32ddd\	.	.	.	.	.	.	.	.	.	.	.	.	.	.	.	.	.	.	.
.	.	.	.	32dd\JJJ	.	.	.	.	.	.	.	.	.	.	.	.	.	.	.	.	.	.	.
16r	.	.	.	32ddd\LLL	.	.	16r	.	16r	.	.	.	.	.	.	.	.	.	.	.	.	.	.
.	.	.	.	32dd\	.	.	.	.	.	.	.	.	.	.	.	.	.	.	.	.	.	.	.
!LO:N:vis=8	!	!	!	!	!	!	!	!	!	!	!	!	!	!	!	!	!	!	!	!	!	!	!
16BB/	.	.	.	32bb\	.	.	16g/	.	16b/	.	.	.	.	.	.	.	.	.	.	.	.	.	.
.	.	.	.	32dd\JJJ	.	.	.	.	.	.	.	.	.	.	.	.	.	.	.	.	.	.	.
!	!	!	!	!	!	!	!LO:N:vis=8	!	!	!	!	!	!	!	!	!	!	!	!	!	!	!	!
16C/LL	.	.	.	32ccc\LLL	.	.	(16a/LL	.	16cc\LL	.	.	.	.	.	.	.	.	.	.	.	.	.	.
.	.	.	.	32dd\	.	.	.	.	.	.	.	.	.	.	.	.	.	.	.	.	.	.	.
!	!	!	!	!	!	!	!LO:N:vis=8	!	!	!	!	!	!	!	!	!	!	!	!	!	!	!	!
16BB/	.	.	.	32bb\	.	.	16g/J)	.	16b\J	.	.	.	.	.	.	.	.	.	.	.	.	.	.
.	.	.	.	32dd\JJJ	.	.	.	.	.	.	.	.	.	.	.	.	.	.	.	.	.	.	.
16AA/	.	.	.	32aa\LLL	.	.	8f#|/J	.	8a\J	.	.	.	.	.	.	.	.	.	.	.	.	.	.
.	.	.	.	32dd\	.	.	.	.	.	.	.	.	.	.	.	.	.	.	.	.	.	.	.
16C/JJ	.	.	.	32ccc\	.	.	.	.	.	.	.	.	.	.	.	.	.	.	.	.	.	.	.
.	.	.	.	32dd\JJJ	.	.	.	.	.	.	.	.	.	.	.	.	.	.	.	.	.	.	.
8BB/	.	.	.	16dd\LL 16bb	.	.	8g/	.	8b/	.	.	.	.	.	.	.	.	.	.	.	.	.	.
.	.	.	.	32dd\L 32ddd	.	.	.	.	.	.	.	.	.	.	.	.	.	.	.	.	.	.	.
.	.	.	.	32dd\JJJ 32ddd	.	.	.	.	.	.	.	.	.	.	.	.	.	.	.	.	.	.	.
16r	.	.	.	4.dd\ 4.ddd	.	.	8r	.	8r	.	.	.	.	.	.	.	.	.	.	.	.	.	.
16BB/ 16D	.	.	.	.	.	.	.	.	.	.	.	.	.	.	.	.	.	.	.	.	.	.	.
16C/LL 16E	.	.	.	.	.	.	4r	.	4r	.	.	.	.	.	.	.	.	.	.	.	.	.	.
16BB/ 16D	.	.	.	.	.	.	.	.	.	.	.	.	.	.	.	.	.	.	.	.	.	.	.
8C/JJ 8E	.	.	.	.	.	.	.	.	.	.	.	.	.	.	.	.	.	.	.	.	.	.	.
!LO:TX:t=P:problem:nieczytelny zapis	!	!	!	!	!	!	!	!	!	!	!	!	!	!	!	!	!	!	!	!	!	!	!
!LO:TX:b:t=verte:rj	!	!	!	!	!	!	!	!	!	!	!	!	!	!	!	!	!	!	!	!	!	!	!
=24	=24	=24	=24	=24	=24	=24	=24	=24	=24	=24	=24	=24	=24	=24	=24	=24	=24	=24	=24	=24	=24	=24	=24
*clefG2	*	*	*	*	*	*	*	*	*	*	*	*	*	*	*	*	*	*	*	*	*	*	*
!LO:PB:g=original	!	!	!	!	!	!	!	!	!	!	!	!	!	!	!	!	!	!	!	!	!	!	!
!LO:N:vis=4	!	!	!	!LO:PB:g=original	!	!	!	!	!	!	!	!	!	!	!	!	!	!	!	!	!	!	!
8g/ 8b	.	.	.	16dd\LL 16ddd	.	.	2r	.	2r	.	1r	.	.	00r	.	00r	.	0r	0r	1r	.	1r	.
.	.	.	.	32dd\L 32ddd	.	.	.	.	.	.	.	.	.	.	.	.	.	.	.	.	.	.	.
.	.	.	.	32dd\JJJ 32ddd	.	.	.	.	.	.	.	.	.	.	.	.	.	.	.	.	.	.	.
16r	.	.	.	4.dd\ 4.ddd	.	.	.	.	.	.	.	.	.	.	.	.	.	.	.	.	.	.	.
16g/ 16b	.	.	.	.	.	.	.	.	.	.	.	.	.	.	.	.	.	.	.	.	.	.	.
16a/LL 16cc	.	.	.	.	.	.	.	.	.	.	.	.	.	.	.	.	.	.	.	.	.	.	.
16g/J 16b	.	.	.	.	.	.	.	.	.	.	.	.	.	.	.	.	.	.	.	.	.	.	.
8d/J 8a	.	.	.	.	.	.	.	.	.	.	.	.	.	.	.	.	.	.	.	.	.	.	.
*clefF4	*	*	*	*	*	*	*	*	*	*	*	*	*	*	*	*	*	*	*	*	*	*	*
!	!	!	!	!	!	!	!	!LO:DY:a:t=forte:color=red	!	!LO:DY:b:t=fort.	!	!	!	!	!	!	!	!	!	!	!	!	!
8G\L 8g	.	.	.	8g/L 8b 8dd 8gg	.	.	8b/L	f	8gg\L	f	.	.	.	.	.	.	.	.	.	.	.	.	.
!	!	!	!	!	!	!	!	!LO:DY:b:t=forte	!	!	!	!	!	!	!	!	!	!	!	!	!	!	!
.	.	.	.	.	.	.	.	f	.	.	.	.	.	.	.	.	.	.	.	.	.	.	.
8G\J 8g	.	.	.	16.b/L 16.dd 16.gg	.	.	16b/L	.	16gg\L	.	.	.	.	.	.	.	.	.	.	.	.	.	.
.	.	.	.	.	.	.	16b/JJ	.	16gg\JJ	.	.	.	.	.	.	.	.	.	.	.	.	.	.
.	.	.	.	32b/JJk 32dd 32gg	.	.	.	.	.	.	.	.	.	.	.	.	.	.	.	.	.	.	.
4G\ 4g	.	.	.	4b/ 4dd 4gg	.	.	4b/	.	4gg\	.	.	.	.	.	.	.	.	.	.	.	.	.	.
=25	=25	=25	=25	=25	=25	=25	=25	=25	=25	=25	=25	=25	=25	=25	=25	=25	=25	=25	=25	=25	=25	=25	=25
!	!	!	!	!LO:TX:a:t=Tutti	!	!	!LO:TX:t=P:problem:szlaczek pod nutami [przyjęto staccato zgodnie z #100]:global	!LO:DY:a:t=forte:color=red	!	!	!	!	!	!	!	!	!	!	!	!LO:LB:g=original	!LO:DY:a:t=forte:rj	!	!LO:DY:a:t=forte
16.G\LL	.	.	.	16.g/LL	.	.	16g'/LL	f	16.g/LL	.	16.G\LL	A-	.	.	.	.	.	.	.	16.gg\LL	f	16.gg\LL	f
.	.	.	.	.	.	.	16b'/	.	.	.	.	.	.	.	.	.	.	.	.	.	.	.	.
32B\K	.	.	.	32b/K	.	.	.	.	32b/K	.	32B\K	.	.	.	.	.	.	.	.	32bb\K	.	32bb\K	.
16.A\	.	.	.	16.a/	.	.	16a'/	.	16a/	.	16.A\	-gnus	.	.	.	.	.	.	.	16.aa\	.	(16.aa\	.
!	!	!	!	!	!	!	!	!	!LO:TX:a:t=Tutti	!	!	!	!	!	!	!	!	!	!	!	!	!	!
.	.	.	.	.	.	.	16g'/JJ	.	16g/JJ	.	.	.	.	.	.	.	.	.	.	.	.	.	.
32G\JJk	.	.	.	32g/JJk	.	.	.	.	.	.	32G\JJk	.	.	.	.	.	.	.	.	32gg\JJk	.	32gg\JJk)	.
8F#/L	.	.	.	8f#/L	.	.	8f#/L	.	8f#/	.	8F#\	De-	.	.	.	.	.	.	.	8ff#\L	.	8ff#\L|	.
8D/J	.	.	.	8d/J	.	.	8d/J	.	8d/	.	8D\	-i	.	.	.	.	.	.	.	8dd\J	.	8dd\J|	.
16.G\LL	.	.	.	16.g/LL	.	.	16g/LL	.	16.g/LL	.	(16.G\LL	qui	.	.	.	.	.	.	.	16.gg\LL	.	16.gg\LL	.
.	.	.	.	.	.	.	16b/	.	.	.	.	.	.	.	.	.	.	.	.	.	.	.	.
32B\K	.	.	.	32b/K	.	.	.	.	32b/K	.	32B\JJk)	.	.	.	.	.	.	.	.	32ddd\K	.	32bb\K	.
16.A\	.	.	.	16.a/	.	.	16a/	.	16.a/	.	(16.A\LL	tol-	.	.	.	.	.	.	.	16.aa\	.	16.aa\	.
.	.	.	.	.	.	.	16g/JJ	.	.	.	.	.	.	.	.	.	.	.	.	.	.	.	.
32G\JJk	.	.	.	32g/JJk	.	.	.	.	32g/JJk	.	32G\JJk)	.	.	.	.	.	.	.	.	32gg\JJk	.	32gg\JJk	.
8F#\L	.	.	.	8f#/L	.	.	8f#'/L	.	8f#/L	.	8F#\L	-lis	.	.	.	.	.	.	.	8ff#\L	.	8ff#\L	.
8D\J	.	.	.	8d/J	.	.	8d'/J	.	8d/J	.	8D\J	.	.	.	.	.	.	.	.	8dd\J	.	8dd\J	.
=26	=26	=26	=26	=26	=26	=26	=26	=26	=26	=26	=26	=26	=26	=26	=26	=26	=26	=26	=26	=26	=26	=26	=26
16.G\LL	.	.	.	16.g/LL	.	.	16g/LL	.	16.g\LL	.	(16.G\LL	pec-	.	.	.	.	.	2r	2r	16.gg\LL	.	16.gg\LL	.
.	.	.	.	.	.	.	16a/	.	.	.	.	.	.	.	.	.	.	.	.	.	.	.	.
32A\K	.	.	.	32a/K	.	.	.	.	32a\K	.	32A\JJk)	.	.	.	.	.	.	.	.	32aa\K	.	32aa\K	.
!	!	!	!	!	!	!	!	!	!	!	!	!	!	!	!	!	!	!	!	!	!	!LO:N:vis=16	!
16.B\	.	.	.	16.b/	.	.	16b/	.	16.b\	.	16.B\	-ca-	.	.	.	.	.	.	.	16.bb\	.	16.bb\	.
.	.	.	.	.	.	.	16cc/JJ	.	.	.	.	.	.	.	.	.	.	.	.	.	.	.	.
32c\JJk	.	.	.	32cc/JJk	.	.	.	.	32cc\JJk	.	32c\	-ta	.	.	.	.	.	.	.	32ccc\JJk	.	32ccc\JJk	.
!LO:TX:t=P:problem:mixed beam	!	!	!	!LO:TX:t=P:problem:mixed beam	!	!	!LO:TX:t=P:problem:mixed beam	!	!LO:TX:t=P:problem:mixed beam	!	!	!	!	!	!	!	!	!	!	!	!	!	!
8d\L	.	.	.	8dd\L	.	.	8dd\L	.	8dd\L	.	(8d\L	mun-	.	.	.	.	.	.	.	8ddd\L	.	8ddd\L	.
8D/J	.	.	.	8d/J	.	.	8d/J	.	8d/J	.	8D\J)	.	.	.	.	.	.	.	.	8dd\J	.	8dd\J	.
!	!	!	!	!	!	!	!LO:LB:g=original	!LO:DY:a:t=Piano:color=red	!	!	!	!	!	!	!	!	!	!	!	!	!	!	!
8G\	.	.	.	8g/	.	.	24g/LL	p	24g\LL	.	8G\	-di	.	.	.	.	.	4g\	4b\	4gg\	.	4gg\	.
.	.	.	.	.	.	.	24b/	.	24dd\	.	.	.	.	.	.	.	.	.	.	.	.	.	.
.	.	.	.	.	.	.	24b/JJ	.	24dd\JJ	.	.	.	.	.	.	.	.	.	.	.	.	.	.
8r	.	.	.	8r	.	.	24b/LL	.	24dd\LL	.	8r	.	.	.	.	.	.	.	.	.	.	.	.
.	.	.	.	.	.	.	24b/	.	24dd\	.	.	.	.	.	.	.	.	.	.	.	.	.	.
.	.	.	.	.	.	.	24b/JJ	.	24dd\JJ	.	.	.	.	.	.	.	.	.	.	.	.	.	.
4r	.	.	.	4r	.	.	24b/LL	.	24dd\LL	.	4r	.	.	.	.	.	.	8r	8r	8r	.	8r	.
.	.	.	.	.	.	.	24a/	.	24cc\	.	.	.	.	.	.	.	.	.	.	.	.	.	.
.	.	.	.	.	.	.	24g/JJ	.	24b\JJ	.	.	.	.	.	.	.	.	.	.	.	.	.	.
!	!	!	!	!	!	!	!	!	!	!	!	!	!	!	!	!	!	!	!	!	!LO:DY:a:t=pia:rj	!	!LO:DY:a:t=pia:rj
.	.	.	.	.	.	.	24b/LL	.	24dd\LL	.	.	.	.	.	.	.	.	8g\	8b\	8bb\	p	8ddd\	p
.	.	.	.	.	.	.	24a/	.	24cc\	.	.	.	.	.	.	.	.	.	.	.	.	.	.
.	.	.	.	.	.	.	24g/JJ	.	24b\JJ	.	.	.	.	.	.	.	.	.	.	.	.	.	.
=27	=27	=27	=27	=27	=27	=27	=27	=27	=27	=27	=27	=27	=27	=27	=27	=27	=27	=27	=27	=27	=27	=27	=27
!LO:LB:g=original	!	!	!	!LO:LB:g=original	!	!	!	!	!	!	!LO:LB:g=original	!	!	!	!	!	!	!	!	!	!	!	!
!	!	!	!	!	!	!	!	!	!	!	!LO:TX:a:t=2.	!	!	!	!	!	!	!	!	!	!	!	!
8D/	x 7-	.	.	1ryy	.	.	24f#'/LL	.	24a/LL	.	0r	.	.	.	.	.	.	4a\	4cc\	4aa\	.	4ccc\	.
.	.	.	.	.	.	.	24a'/	.	24cc/	.	.	.	.	.	.	.	.	.	.	.	.	.	.
.	.	.	.	.	.	.	24a'/JJ	.	24cc/JJ	.	.	.	.	.	.	.	.	.	.	.	.	.	.
8r	.	.	.	.	.	.	24a'/LL	.	24cc\LL	.	.	.	.	.	.	.	.	.	.	.	.	.	.
.	.	.	.	.	.	.	24a'/	.	24cc\	.	.	.	.	.	.	.	.	.	.	.	.	.	.
.	.	.	.	.	.	.	24a'/JJ	.	24cc\JJ	.	.	.	.	.	.	.	.	.	.	.	.	.	.
4r	.	.	.	.	.	.	24a'/LL	.	24cc\LL	.	.	.	.	.	.	.	.	8r	8r	8r	.	8r	.
.	.	.	.	.	.	.	24g'/	.	24b\	.	.	.	.	.	.	.	.	.	.	.	.	.	.
.	.	.	.	.	.	.	24f#'/JJ	.	24a\JJ	.	.	.	.	.	.	.	.	.	.	.	.	.	.
.	.	.	.	.	.	.	24a'/LL	.	24cc\LL	.	.	.	.	.	.	.	.	8a\	8cc\	8aa\	.	8ccc\	.
.	.	.	.	.	.	.	24g'/	.	24b\	.	.	.	.	.	.	.	.	.	.	.	.	.	.
.	.	.	.	.	.	.	24f#'/JJ	.	24a\JJ	.	.	.	.	.	.	.	.	.	.	.	.	.	.
!	!	!	!	!	!	!	!	!	!LO:LB:g=original	!	!	!	!	!	!	!	!	!	!	!	!	!LO:LB:g=original	!
8G\	x 7	.	.	.	.	.	24B'/LL	.	24g/LL	.	.	.	.	.	.	.	.	4g\	4b\	4gg\	.	4bb\	.
.	.	.	.	.	.	.	24d'/	.	24b/	.	.	.	.	.	.	.	.	.	.	.	.	.	.
.	.	.	.	.	.	.	24d'/JJ	.	24b/JJ	.	.	.	.	.	.	.	.	.	.	.	.	.	.
8r	.	.	.	.	.	.	24d'/LL	.	24b/LL	.	.	.	.	.	.	.	.	.	.	.	.	.	.
.	.	.	.	.	.	.	24d'/	.	24b/	.	.	.	.	.	.	.	.	.	.	.	.	.	.
.	.	.	.	.	.	.	24d'/JJ	.	24b/JJ	.	.	.	.	.	.	.	.	.	.	.	.	.	.
4r	.	.	.	.	.	.	(24d/LL	.	24cc/LL	.	.	.	.	.	.	.	.	8r	8r	8r	.	8r	.
.	.	.	.	.	.	.	24c/	.	24a/	.	.	.	.	.	.	.	.	.	.	.	.	.	.
.	.	.	.	.	.	.	24B/JJ)	.	24g/JJ	.	.	.	.	.	.	.	.	.	.	.	.	.	.
.	.	.	.	.	.	.	(24d/LL	.	24b\LL	.	.	.	.	.	.	.	.	8g\	8b\	8dd\	.	8bb\	.
.	.	.	.	.	.	.	24c/	.	24a\	.	.	.	.	.	.	.	.	.	.	.	.	.	.
.	.	.	.	.	.	.	24B/JJ)	.	24g\JJ	.	.	.	.	.	.	.	.	.	.	.	.	.	.
=28	=28	=28	=28	=28	=28	=28	=28	=28	=28	=28	=28	=28	=28	=28	=28	=28	=28	=28	=28	=28	=28	=28	=28
!	!	!	!	!	!	!	!	!	!	!	!	!	!	!LO:TX:t=P:problem:brak taktów nr 28-29	!	!	!	!	!	!LO:LB:g=original	!	!	!
8D/	x 5	.	.	1ryy	.	.	24A/LL	.	24f#/LL	.	.	.	.	1ryy	.	0r	.	4d/	4a\	4cc\	.	4aa\	.
.	.	.	.	.	.	.	24c/	.	24a/	.	.	.	.	.	.	.	.	.	.	.	.	.	.
.	.	.	.	.	.	.	24c/JJ	.	24a/JJ	.	.	.	.	.	.	.	.	.	.	.	.	.	.
8r	.	.	.	.	.	.	24c/LL	.	24a/LL	.	.	.	.	.	.	.	.	.	.	.	.	.	.
.	.	.	.	.	.	.	24c/	.	24a/	.	.	.	.	.	.	.	.	.	.	.	.	.	.
.	.	.	.	.	.	.	24c/JJ	.	24a/JJ	.	.	.	.	.	.	.	.	.	.	.	.	.	.
4r	.	.	.	.	.	.	24c/LL	.	24a/LL	.	.	.	.	.	.	.	.	8r	8r	8r	.	8r	.
.	.	.	.	.	.	.	24B/	.	24g/	.	.	.	.	.	.	.	.	.	.	.	.	.	.
.	.	.	.	.	.	.	24A/JJ	.	24f#/JJ	.	.	.	.	.	.	.	.	.	.	.	.	.	.
.	.	.	.	.	.	.	24c/LL	.	24a/LL	.	.	.	.	.	.	.	.	8d/	8a\	8cc\	.	8aa\	.
.	.	.	.	.	.	.	24B/	.	24g/	.	.	.	.	.	.	.	.	.	.	.	.	.	.
.	.	.	.	.	.	.	24A/JJ	.	24f#/JJ	.	.	.	.	.	.	.	.	.	.	.	.	.	.
!	!	!	!	!	!	!	!LO:TX:t=P:problem:mixed beam	!	!	!	!	!	!	!	!	!	!	!LO:LB:g=original	!	!	!	!	!
8r	.	.	.	.	.	.	24B/LL	.	24g\LL	.	.	.	.	.	.	.	.	4G/	4g\	4b\	.	4gg\	.
.	.	.	.	.	.	.	24b\	.	24dd\|	.	.	.	.	.	.	.	.	.	.	.	.	.	.
.	.	.	.	.	.	.	24b\JJ	.	24dd\JJ	.	.	.	.	.	.	.	.	.	.	.	.	.	.
16r	.	.	.	.	.	.	24b\LL	.	24dd\LL	.	.	.	.	.	.	.	.	.	.	.	.	.	.
.	.	.	.	.	.	.	24a\	.	24cc\	.	.	.	.	.	.	.	.	.	.	.	.	.	.
16D\ 16d	x 8	.	.	.	.	.	.	.	.	.	.	.	.	.	.	.	.	.	.	.	.	.	.
.	.	.	.	.	.	.	24g\JJ	.	24b\JJ	.	.	.	.	.	.	.	.	.	.	.	.	.	.
4D\ 4d	x 5	.	.	.	.	.	4f#/	.	4a/	.	.	.	.	.	.	.	.	4r	4r	4a\	.	4ff#\	.
=29	=29	=29	=29	=29	=29	=29	=29	=29	=29	=29	=29	=29	=29	=29	=29	=29	=29	=29	=29	=29	=29	=29	=29
!	!	!	!	!	!	!	!	!	!	!	!	!	!	!	!	!	!	!	!	!	!	!LO:N:vis=1	!
!	!	!	!	!LO:TX:a:t=Solo:rj	!	!	!LO:N:vis=4	!	!LO:N:vis=16	!	!	!	!	!	!	!	!	!	!	!LO:N:vis=1	!	!	!
4G\	.	.	.	24gg\LL 24bb	.	.	8r	.	8r	.	2r	.	.	1ryy	.	.	.	2r	2r	2r	.	2r	.
.	.	.	.	24aa\ 24ccc	.	.	.	.	.	.	.	.	.	.	.	.	.	.	.	.	.	.	.
.	.	.	.	24bb\JJ 24ddd	.	.	.	.	.	.	.	.	.	.	.	.	.	.	.	.	.	.	.
!	!	!	!	!	!	!	!LO:LB:g=original	!	!	!	!	!	!	!	!	!	!	!	!	!	!	!	!
.	.	.	.	24bb\LL 24ddd	.	.	16r	.	16r	.	.	.	.	.	.	.	.	.	.	.	.	.	.
.	.	.	.	24aa\ 24ccc	.	.	.	.	.	.	.	.	.	.	.	.	.	.	.	.	.	.	.
.	.	.	.	.	.	.	16d/ 16f#	.	16d/	.	.	.	.	.	.	.	.	.	.	.	.	.	.
.	.	.	.	24gg\JJ 24bb	.	.	.	.	.	.	.	.	.	.	.	.	.	.	.	.	.	.	.
!	!	!	!	!	!	!	!LO:N:vis=8	!	!	!	!	!	!	!	!	!	!	!	!	!	!	!	!
4D/	.	.	.	4ff#\ 4aa	.	.	4d/ 4f#	.	4d/	.	.	.	.	.	.	.	.	.	.	.	.	.	.
!	!	!	!	!LO:TX:a:t=Tutti	!	!	!	!LO:DY:a:t=forte:color=red	!	!	!	!	!	!	!	!	!	!	!	!	!LO:DY:a:t=forte:rj	!	!LO:DY:a:t=for:rj
16.G\LL	.	.	.	16.gg\LL	.	.	16g/LL	f	16.g/LL	.	16.G\	qui	.	.	.	.	.	4r	4r	16.g/LL	f	16.gg\LL|	f
.	.	.	.	.	.	.	16a/	.	.	.	.	.	.	.	.	.	.	.	.	.	.	.	.
32A\K	.	.	.	32aa\K	.	.	.	.	32a/K	.	32A\	.	.	.	.	.	.	.	.	32a/K	.	32aa\K|	.
16.B\	.	.	.	16.bb\	.	.	16b/	.	16.b/	.	16.B\	tol-	.	.	.	.	.	.	.	16.b/	.	16.bb\|	.
.	.	.	.	.	.	.	16cc/JJ	.	.	.	.	.	.	.	.	.	.	.	.	.	.	.	.
32c\JJk	.	.	.	32ccc\JJk	.	.	.	.	32cc/JJk	.	32c\	-lis	.	.	.	.	.	.	.	32cc/JJk	.	32ccc\JJk|	.
!LO:TX:t=P:problem:mixed beam	!	!	!	!LO:TX:t=P:problem:mixed beam	!	!	!LO:TX:t=P:problem:mixed beam	!	!LO:TX:t=P:problem:mixed beam	!	!	!	!	!	!	!	!	!	!	!	!	!	!
16.d\LL	.	.	.	16.ddd\LL	.	.	16dd\LL	.	16.dd\LL	.	16d\LL	pec-	.	.	.	.	.	8r	8r	16dd\LL	.	(16ddd\LL	.
.	.	.	.	.	.	.	16cc#X\	.	.	.	16c#X\JJ	.	.	.	.	.	.	.	.	16cc#X\	.	16ccc#X\)	.
32c#\K	.	.	.	32ccc#\K	.	.	.	.	32cc#X\K	.	.	.	.	.	.	.	.	.	.	.	.	.	.
16.d\	.	.	.	16.ddd\	.	.	16dd\	.	16.dd\	.	16d\	-ca-	.	.	.	.	.	8d/	8a\	16dd\	.	(16ddd\	.
.	.	.	.	.	.	.	16d/JJ	.	.	.	16D/	-ta	.	.	.	.	.	.	.	16ff#\JJ	.	16dd\JJ)	.
!	!	!	!	!	!	!	!	!	!LO:N:vis=16	!	!	!	!	!	!	!	!	!	!	!	!	!	!
32D/JJk	.	.	.	32dd/JJk	.	.	.	.	32d/JJk	.	.	.	.	.	.	.	.	.	.	.	.	.	.
=30	=30	=30	=30	=30	=30	=30	=30	=30	=30	=30	=30	=30	=30	=30	=30	=30	=30	=30	=30	=30	=30	=30	=30
*^	*	*	*	*	*	*	*	*	*	*	*	*	*	*	*	*	*	*	*	*	*	*	*
!LO:LB:g=original	!	!	!	!	!LO:LB:g=original	!	!	!	!	!LO:TX:t=P:problem:mixed beam	!	!	!	!	!LO:N:vis=1	!	!LO:N:vis=1	!	!LO:TX:t=P:problem:mixed beam	!LO:LB:g=original	!	!	!	!
8G\L|	2rAAyy	.	.	.	8b/L 8dd 8gg	.	.	8g/L	.	8g/L	.	4G\	mun-	.	2r	.	2r	.	8g\L	8g\L	8gg\L	.	8gg\L|	.
8G\J|	.	.	.	.	8b/J 8dd 8gg	.	.	8B/J 8g	.	8gg\J	.	.	.	.	.	.	.	.	8G/J	8b\J	8gg\J	.	8gg\J|	.
4G\|	.	.	.	.	4b/ 4dd 4gg	.	.	4B/ 4g	.	4gg\	.	4G\	-di	.	.	.	.	.	4G/	4b\	4gg\	.	4gg\|	.
*tremolo	*	*	*	*	*	*	*	*	*	*	*	*	*	*	*	*	*	*	*	*	*	*	*	*
!	!	!	!	!	!	!	!LO:DY:a:t=Piano	!	!	!	!	!	!	!	!	!	!	!	!	!	!LO:TX:a:t=Solo	!	!	!
8B/L	8G\L	.	.	.	8dd\L	A-	p	16r	.	16r	.	2r	.	.	8.b\L	A-	8.dd\L	A-	2r	2r	8.dd\L	.	2r	.
!	!	!	!	!	!	!	!	!	!LO:DY:a:t=Pio:color=red	!	!LO:DY:a:t=Piano	!	!	!	!	!	!	!	!	!	!	!	!	!
.	.	.	.	.	.	.	.	16g'/LL 16b	p	16dd\LL	p	.	.	.	.	.	.	.	.	.	.	.	.	.
!	!	!	!	!	!	!	!	!	!	!	!LO:DY:b:t=piano	!	!	!	!	!	!	!	!	!	!	!	!	!
8B/	8G\	.	.	.	16ee\L	.	.	16b'/	.	16dd\	p	.	.	.	.	.	.	.	.	.	.	.	.	.
!	!	!	!	!	!	!	!	!	!	!	!	!	!	!	!	!	!	!	!	!	!	!LO:DY:a:t=Piano	!	!
.	.	.	.	.	16dd\JJ	.	.	16b'/JJ	.	16dd\JJ	.	.	.	.	32cc\LL	.	32ee\LL	.	.	.	32ee\LL	p	.	.
.	.	.	.	.	.	.	.	.	.	.	.	.	.	.	32b\JJJ	.	32dd\JJJ	.	.	.	32dd\JJJ	.	.	.
!	!	!	!	!	!LO:TX:a:t=Solo	!	!	!	!	!	!	!	!	!	!	!	!	!	!	!	!	!	!	!
8B/	8G\	.	.	.	16cc/LL	-gnus	.	16r	.	16r	.	.	.	.	(16a\LL	.	(16cc\LL	.	.	.	16cc\LL	.	.	.
.	.	.	.	.	16b/JJ	.	.	16b'/LL	.	16dd\LL	.	.	.	.	16g\JJ)	.	16b\JJ)	.	.	.	16b\JJ	.	.	.
8B/J	8G\J	.	.	.	16a/LL	.	.	16b'/	.	16dd\	.	.	.	.	16f#/LL	-gnus	(16a\LL	-gnus	.	.	16a/LL	.	.	.
!	!	!	!	!	!LO:TX:b:t=30	!	!	!	!	!	!	!	!	!	!	!	!	!	!	!	!	!	!	!
.	.	.	.	.	16g/JJ	.	.	16b'/JJ	.	16gg\JJ	.	.	.	.	16e/JJ	.	16g\JJ)	.	.	.	16g/JJ	.	.	.
=31	=31	=31	=31	=31	=31	=31	=31	=31	=31	=31	=31	=31	=31	=31	=31	=31	=31	=31	=31	=31	=31	=31	=31	=31
!	!	!	!	!	!	!	!	!	!	!	!	!LO:TX:a:t=17.	!	!	!	!	!	!	!LO:TX:a:t=19	!LO:TX:b:t=19	!	!	!LO:TX:a:t=Solo:rj	!
8c/L	8A\L	.	.	.	16g/LL	De-	.	16r	.	16r	.	00r	.	.	16e/LL	De-	16g/LL	De-	00r	00r	(16e/LL	.	(16gg\LL	.
.	.	.	.	.	16f#/JJ	.	.	16cc'/LL	.	16ff#\LL	.	.	.	.	16d/JJ	.	16f#/JJ	.	.	.	16d/J)	.	16ff#\J)	.
8c/	8A\	.	.	.	8f#/	-i	.	16cc'/	.	16ff#\	.	.	.	.	8d/	-i	8f#/	-i	.	.	8d/J|	.	8ff#\J|	.
.	.	.	.	.	.	.	.	16cc'/JJ	.	16ff#\JJ	.	.	.	.	.	.	.	.	.	.	.	.	.	.
!	!	!	!	!	!	!	!	!	!	!LO:LB:g=original	!	!	!	!	!	!	!	!	!	!	!	!	!	!
8c/	8A\	.	.	.	8r	.	.	16r	.	16r	.	.	.	.	8r	.	8r	.	.	.	8r	.	8r	.
.	.	.	.	.	.	.	.	16cc'/LL	.	16ff#\LL	.	.	.	.	.	.	.	.	.	.	.	.	.	.
8c/J	8A\J	.	.	.	16f#/LL	qui	.	16cc'/	.	16ff#\	.	.	.	.	16d/LL	qui	16f#/LL	qui	.	.	16d/LL	.	16ff#\LL	.
!	!	!	!	!	!	!	!	!	!	!	!	!	!	!	!	!	!	!	!	!	!LO:TX:t=P:problem:niejednoznaczny zapis łuku	!	!	!
.	.	.	.	.	16g/JJ	.	.	16cc'/JJ	.	16ff#\JJ	.	.	.	.	16e/JJ	.	16g/JJ	.	.	.	(<16e/JJ	.	16gg\JJ	.
!	!	!	!	!	!	!	!	!	!	!	!	!	!	!	!	!	!	!	!	!	!LO:LB:g=original	!	!	!
8A/L	8F#\L	.	.	.	8.a/L	tol-	.	16r	.	16r	.	.	.	.	8.f#/L	tol-	8.a\L	tol-	.	.	8.f#/L)>	.	8.aa\L	.
.	.	.	.	.	.	.	.	16cc'/LL	.	16aa\LL	.	.	.	.	.	.	.	.	.	.	.	.	.	.
8A/	8F#\	.	.	.	.	.	.	16cc'/	.	16aa\	.	.	.	.	.	.	.	.	.	.	.	.	.	.
.	.	.	.	.	16b/Jk	.	.	16cc'/JJ	.	16aa\JJ	.	.	.	.	16g/Jk	-lis	16b\Jk	-lis	.	.	16g/Jk	.	16bb\Jk	.
!	!	!	!	!	!	!	!	!	!	!	!	!	!	!	!	!	!	!	!	!	!	!	!LO:LB:g=original	!
8A/	8F#\	.	.	.	16cc\LL	-lis	.	16r	.	16r	.	.	.	.	(16a\LL	pec-	(16cc\LL	pec-	.	.	(16a\LL	.	(16ccc\LL	.
.	.	.	.	.	16ee\JJ	.	.	16cc'/LL	.	16aa\LL	.	.	.	.	16cc\JJ)	.	16ee\JJ)	.	.	.	16cc\)	.	16eee\JJ)	.
8A/J	8F#\J	.	.	.	16dd\LL	pec-	.	16cc'/	.	16aa\	.	.	.	.	(16b\LL	-ca-	(16dd\LL	-ca-	.	.	(16b\	.	(16ddd\LL	.
.	.	.	.	.	16cc\JJ	.	.	16cc'/JJ	.	16aa\JJ	.	.	.	.	16a\JJ)	-ta	16cc\JJ)	-ta	.	.	16a\JJ)	.	16ccc\JJ)	.
*v	*v	*	*	*	*	*	*	*	*	*	*	*	*	*	*	*	*	*	*	*	*	*	*	*
=32	=32	=32	=32	=32	=32	=32	=32	=32	=32	=32	=32	=32	=32	=32	=32	=32	=32	=32	=32	=32	=32	=32	=32
*tremolo	*	*	*	*	*	*	*	*	*	*	*	*	*	*	*	*	*	*	*	*	*	*	*
8G\L	.	.	.	16cc/LL	-ca-	.	16r	.	16r	.	.	.	.	(16a\LL	mun-	(16cc\LL	mun-	.	.	16a/LL	.	(16ccc\LL	.
.	.	.	.	16b/JJ	.	.	16b\LL|	.	16gg\LL|	.	.	.	.	16g\JJ)	.	16b\JJ)	.	.	.	16g/J	.	16bb\J)	.
8G\	.	.	.	8b/	-ta	.	16b\|	.	16gg\|	.	.	.	.	8g\	-di	8b\	-di	.	.	8g/J	.	8bb\J|	.
.	.	.	.	.	.	.	16b\JJ|	.	16gg\JJ|	.	.	.	.	.	.	.	.	.	.	.	.	.	.
8G\	.	.	.	8r	.	.	16r	.	16r	.	.	.	.	4r	.	8r	.	.	.	8r	.	8r	.
.	.	.	.	.	.	.	16b\LL|	.	16dd\LL	.	.	.	.	.	.	.	.	.	.	.	.	.	.
8G\J	.	.	.	8dd\	qui	.	16b\|	.	16dd\	.	.	.	.	.	.	8dd\	qui	.	.	8B/ 8b	.	8ddd\	.
*Xtremolo	*	*	*	*	*	*	*	*	*	*	*	*	*	*	*	*	*	*	*	*	*	*	*
.	.	.	.	.	.	.	16b\JJ|	.	16dd\JJ	.	.	.	.	.	.	.	.	.	.	.	.	.	.
!	!	!	!	!	!	!	!	!	!	!	!	!	!	!	!	!	!	!	!	!LO:TX:t=P:problem:mixed beam	!	!	!
8r	.	.	.	16dd/LL	tol-	.	16r	.	16r	.	.	.	.	2r	.	(16dd\LL	tol-	.	.	16b\LL	.	(16ddd\LL	.
.	.	.	.	16f#/JJ	.	.	16a\LL|	.	16dd\LL	.	.	.	.	.	.	16f#\JJ)	.	.	.	16d/JJ	.	16ff#\JJ)	.
8B\L 8d	.	.	.	4f#/	-lis	.	16a\|	.	16dd\	.	.	.	.	.	.	4f#/	-lis	.	.	4d/	.	4ff#\|	.
.	.	.	.	.	.	.	16a\JJ|	.	16dd\JJ	.	.	.	.	.	.	.	.	.	.	.	.	.	.
8B\ 8d	.	.	.	.	.	.	16r	.	16r	.	.	.	.	.	.	.	.	.	.	.	.	.	.
.	.	.	.	.	.	.	16a/LL|	.	16dd\LL	.	.	.	.	.	.	.	.	.	.	.	.	.	.
8B\J 8d	.	.	.	8dd\	qui	.	16a/|	.	16dd\	.	.	.	.	.	.	8dd\	qui	.	.	8b\	.	8ddd\	.
.	.	.	.	.	.	.	16a/JJ|	.	16dd\JJ	.	.	.	.	.	.	.	.	.	.	.	.	.	.
=33	=33	=33	=33	=33	=33	=33	=33	=33	=33	=33	=33	=33	=33	=33	=33	=33	=33	=33	=33	=33	=33	=33	=33
!	!	!	!	!	!	!	!LO:LB:g=original	!	!	!	!	!	!	!LO:TX:a:t=6	!	!LO:LB:g=original	!	!	!	!	!	!	!
8r	.	.	.	16dd/LL	tol-	.	16r	.	16r	.	.	.	.	00r	.	(16dd\LL	tol-	.	.	16b\LL	.	(16ddd\LL	.
.	.	.	.	16g/JJ	.	.	16g'/LL	.	16dd\LL	.	.	.	.	.	.	16g\JJ)	.	.	.	16e\JJ	.	16gg\JJ)	.
8B\L 8d	.	.	.	4g/	-lis	.	16g'/	.	16dd\	.	.	.	.	.	.	4g\	-lis	.	.	4e/	.	4gg\	.
.	.	.	.	.	.	.	16g'/JJ	.	16dd\JJ	.	.	.	.	.	.	.	.	.	.	.	.	.	.
8B\ 8d	.	.	.	.	.	.	16r	.	16r	.	.	.	.	.	.	.	.	.	.	.	.	.	.
.	.	.	.	.	.	.	16g'/LL	.	16dd\LL	.	.	.	.	.	.	.	.	.	.	.	.	.	.
8G\J	.	.	.	8g/ 8b	pec-	.	16g'/	.	16b\	.	.	.	.	.	.	8b\	pec-	.	.	8e/	.	8bb\	.
.	.	.	.	.	.	.	16d'/JJ	.	16b\JJ	.	.	.	.	.	.	.	.	.	.	.	.	.	.
*tremolo	*	*	*	*	*	*	*	*	*	*	*	*	*	*	*	*	*	*	*	*	*	*	*
8D/L	.	.	.	16f#/LL 16a	-ca-	.	(16f#/LL	.	16a\LL	.	.	.	.	.	.	(16a\LL	-ca-	.	.	16f#/LL	.	(16aa\LL	.
.	.	.	.	16a/JJ 16cc	.	.	16a/)	.	16cc\	.	.	.	.	.	.	16cc\JJ)	.	.	.	16a/JJ	.	16ccc\JJ)	.
8D/	.	.	.	16g/LL 16b	-ta	.	(16f#/	.	16b\	.	.	.	.	.	.	(16b\LL	.	.	.	16f#/LL 16b	.	(16bb\LL	.
.	.	.	.	16b/JJ 16dd	.	.	16a/JJ)	.	16dd\JJ	.	.	.	.	.	.	16dd\JJ)	.	.	.	16b/JJ	.	16ddd\JJ)	.
8D/	.	.	.	8b/L 8dd	mun-	.	8g/L	.	8ee\L	.	.	.	.	.	.	8dd\L	-ta	.	.	8b/L	.	(8ddd\L	.
8D/J	.	.	.	8a/J 8cc	.	.	8a/J	.	8cc\J	.	.	.	.	.	.	8cc\J	.	.	.	8a/J	.	8ccc\J)	.
=34	=34	=34	=34	=34	=34	=34	=34	=34	=34	=34	=34	=34	=34	=34	=34	=34	=34	=34	=34	=34	=34	=34	=34
!	!	!	!	!LO:LB:g=original	!	!	!	!	!	!	!	!	!	!	!	!	!	!	!	!	!	!	!
.	.	.	.	8qqcc	.	.	8qqa/	.	8qqdd/	.	.	.	.	.	.	.	.	.	.	.	.	8qqccc/	.
!LO:LB:g=original	!	!	!	!	!	!	!	!	!	!	!	!	!	!	!	!	!	!	!	!	!	!	!
8G\L	.	.	.	4g/ 4b	-di	.	(8g/L	.	8b\L	.	.	.	.	.	.	8cc\L	mun-	.	.	4g/	.	4bb\	.
8G\	.	.	.	.	.	.	16g'/L)	.	16b\L	.	.	.	.	.	.	8b\J	-di	.	.	.	.	.	.
.	.	.	.	.	.	.	16g'/JJ	.	16b\JJ	.	.	.	.	.	.	.	.	.	.	.	.	.	.
8G\	.	.	.	8r	.	.	4g/	.	4b\	.	.	.	.	.	.	8r	.	.	.	8r	.	8r	.
8G\J	.	.	.	8b/	qui	.	.	.	.	.	.	.	.	.	.	8b\	qui	.	.	8b/	.	8b\	.
!	!	!	!	!	!	!	!	!	!	!	!	!	!	!	!	!	!	!	!	!LO:LB:g=original	!	!	!
8G\L	.	.	.	16b\LL	tol-	.	16r	.	16r	.	.	.	.	.	.	16b\LL	tol-	.	.	8b\	.	16b\LL	.
.	.	.	.	16gg\JJ	.	.	16b'/LL	.	16gg\LL	.	.	.	.	.	.	16gg\JJ	.	.	.	.	.	16gg\JJ	.
!	!	!	!	!	!	!	!	!	!	!	!	!	!	!	!	!	!	!	!	!	!	!LO:LB:g=original	!
8G\	.	.	.	4b\ 4gg	-lis	.	16b'/	.	16gg\	.	.	.	.	.	.	4gg\	-lis	.	.	4b\	.	4gg\	.
.	.	.	.	.	.	.	16b'/JJ	.	16gg\JJ	.	.	.	.	.	.	.	.	.	.	.	.	.	.
8G\	.	.	.	.	.	.	16r	.	16r	.	.	.	.	.	.	.	.	.	.	.	.	.	.
.	.	.	.	.	.	.	16b'/LL	.	16gg\LL	.	.	.	.	.	.	.	.	.	.	.	.	.	.
8G\J	.	.	.	8g/ 8b	pec-	.	16b'/	.	16gg\	.	.	.	.	.	.	8b\	pec-	.	.	8g\	.	8b/	.
.	.	.	.	.	.	.	16b'/JJ	.	16gg\JJ	.	.	.	.	.	.	.	.	.	.	.	.	.	.
=35	=35	=35	=35	=35	=35	=35	=35	=35	=35	=35	=35	=35	=35	=35	=35	=35	=35	=35	=35	=35	=35	=35	=35
*	*	*	*	*^	*	*	*	*	*	*	*	*	*	*	*	*	*	*	*	*	*	*	*
8d\L	.	.	.	16g/LL 16b	2rfyy	-ca-	.	16r	.	16r	.	00r	.	.	.	.	(16b\LL	-ca-	00r	00r	16g/LL	.	16b/LL	.
.	.	.	.	16f#/JJ 16a	.	.	.	16a'/LL	.	16ff#\LL	.	.	.	.	.	.	16a\JJ)	.	.	.	16f#/JJ	.	16a/JJ	.
8d\	.	.	.	8f#/ 8a	.	-ta	.	16a'/	.	16ff#\	.	.	.	.	.	.	8a\	-ta	.	.	8f#/	.	8a/	.
.	.	.	.	.	.	.	.	16a'/JJ	.	16ff#\JJ	.	.	.	.	.	.	.	.	.	.	.	.	.	.
8d\	.	.	.	8r	.	.	.	16r	.	16r	.	.	.	.	.	.	8r	.	.	.	8r	.	8r	.
.	.	.	.	.	.	.	.	16a'/LL	.	16ff#\LL	.	.	.	.	.	.	.	.	.	.	.	.	.	.
8d\J	.	.	.	8a/	.	qui	.	16a'/	.	16ff#\	.	.	.	.	.	.	8a\	qui	.	.	8a/L	.	8a/	.
.	.	.	.	.	.	.	.	16a'/JJ	.	16ff#\JJ	.	.	.	.	.	.	.	.	.	.	.	.	.	.
!	!	!	!	!	!	!	!	!	!	!LO:LB:g=original	!	!	!	!	!	!	!	!	!	!	!	!	!	!
8d#X\L	.	.	.	16a/LL	16a\	tol-	.	16r	.	16r	.	.	.	.	.	.	(16a\LL	tol-	.	.	8a/J	.	16a/LL	.
.	.	.	.	16ff#/JJ	16ryy	.	.	16a'/LL	.	16ff#\LL	.	.	.	.	.	.	16ff#\JJ)	.	.	.	.	.	16ff#/JJ	.
8d#X\	.	.	.	4a\ 4ff#	8rayy	-lis	.	16a'/	.	16ff#\	.	.	.	.	.	.	4ff#\	-lis	.	.	4a/	.	4ff#\	.
.	.	.	.	.	.	.	.	16a'/JJ	.	16ff#\JJ	.	.	.	.	.	.	.	.	.	.	.	.	.	.
8d#X\	.	.	.	.	4ryy	.	.	16r	.	16r	.	.	.	.	.	.	.	.	.	.	.	.	.	.
.	.	.	.	.	.	.	.	16a'/LL	.	16ff#\LL	.	.	.	.	.	.	.	.	.	.	.	.	.	.
8d#X\J	.	.	.	8a/	.	pec-	.	16a'/	.	16ff#\	.	.	.	.	.	.	8a\	pec-	.	.	8a/	.	8aa\	.
.	.	.	.	.	.	.	.	16a'/JJ	.	16ff#\JJ	.	.	.	.	.	.	.	.	.	.	.	.	.	.
*Xtremolo	*	*	*	*	*	*	*	*	*	*	*	*	*	*	*	*	*	*	*	*	*	*	*	*
=36	=36	=36	=36	=36	=36	=36	=36	=36	=36	=36	=36	=36	=36	=36	=36	=36	=36	=36	=36	=36	=36	=36	=36	=36
8e\L	.	.	.	16a/LL	2rfyy	-ca-	.	16r	.	16r	.	.	.	.	.	.	(16a\LL	-ca-	.	.	16a/LL	.	16aa\LL	.
.	.	.	.	16g/JJ	.	.	.	16g'/LL	.	16ee\LL	.	.	.	.	.	.	16g\JJ)	.	.	.	16g/JJ	.	16gg\JJ	.
!	!	!	!	!	!	!	!	!	!	!	!	!	!	!	!	!	!	!	!	!	!LO:SIC:v:s=8g/	!	!	!
8e\	.	.	.	8g/	.	-ta	.	16g'/	.	16ee\	.	.	.	.	.	.	8g\	-ta	.	.	8a/	.	8gg\	.
.	.	.	.	.	.	.	.	16g'/JJ	.	16ee\JJ	.	.	.	.	.	.	.	.	.	.	.	.	.	.
8e\J	.	.	.	8r	.	.	.	16r	.	16r	.	.	.	.	.	.	8r	.	.	.	8r	.	8r	.
.	.	.	.	.	.	.	.	16gg\LL|	.	16bb\LL	.	.	.	.	.	.	.	.	.	.	.	.	.	.
8e\L	.	.	.	8g/	.	qui	.	16gg\|	.	16bb\	.	.	.	.	.	.	8g\	qui	.	.	8ee\	.	8gg\	.
.	.	.	.	.	.	.	.	16gg\JJ|	.	16bb\JJ	.	.	.	.	.	.	.	.	.	.	.	.	.	.
8e\	.	.	.	16g/LL	8rfyy	tol-	.	16r	.	16r	.	.	.	.	.	.	16g\LL	tol-	.	.	8ee\	.	(16gg\LL	.
.	.	.	.	16cc/JJ	.	.	.	16gg\LL|	.	16ccc\LL	.	.	.	.	.	.	16cc\JJ	.	.	.	.	.	16ccc\JJ)	.
8e\	.	.	.	4cc/	4g\	-lis	.	16gg\|	.	16ccc\	.	.	.	.	.	.	4cc\	-lis	.	.	4gg\	.	4ccc\|	.
.	.	.	.	.	.	.	.	16gg\JJ|	.	16ccc\JJ	.	.	.	.	.	.	.	.	.	.	.	.	.	.
8e\	.	.	.	.	.	.	.	16r	.	16r	.	.	.	.	.	.	.	.	.	.	.	.	.	.
.	.	.	.	.	.	.	.	16gg\LL|	.	16ccc\LL	.	.	.	.	.	.	.	.	.	.	.	.	.	.
8e\J	.	.	.	8b/	8g\	pec-	.	16gg\|	.	16bb\	.	.	.	.	.	.	8b\	.	.	.	8gg\	.	8bb\	.
.	.	.	.	.	.	.	.	16gg\JJ|	.	16bb\JJ	.	.	.	.	.	.	.	.	.	.	.	.	.	.
=37	=37	=37	=37	=37	=37	=37	=37	=37	=37	=37	=37	=37	=37	=37	=37	=37	=37	=37	=37	=37	=37	=37	=37	=37
!	!	!	!	!	!	!	!	!	!	!	!	!	!	!	!	!	!LO:LB:g=original	!	!	!	!	!	!	!
8e\L	.	.	.	16a#X/LL	4f#\	-ca-	.	16r	.	16r	.	.	.	.	0r	.	(16a#X\LL	pec-	.	.	8ff#\L	.	(16aa#X\LL	.
.	.	.	.	16b/JJ	.	.	.	16ff#'\LL	.	16bb\LL	.	.	.	.	.	.	16b\JJ)	-ca-	.	.	.	.	16bb\JJ)	.
8d#X\J	.	.	.	8f#/ 8b	.	-ta	.	16ff#'\	.	16bb\	.	.	.	.	.	.	8b\	-ta	.	.	8ff#\J	.	8bb\|	.
.	.	.	.	.	.	.	.	16ff#'\JJ	.	16bb\JJ	.	.	.	.	.	.	.	.	.	.	.	.	.	.
!	!	!	!	!	!	!	!	!LO:LB:g=original	!	!	!	!	!	!	!	!	!	!	!	!	!LO:LB:g=original	!	!	!
8d#\L	.	.	.	8r	4rayy	.	.	16r	.	16r	.	.	.	.	.	.	8r	.	.	.	8r	.	8r	.
.	.	.	.	.	.	.	.	16ff#'\LL	.	16bb\LL	.	.	.	.	.	.	.	.	.	.	.	.	.	.
8d#\J	.	.	.	8f#/	.	qui	.	16ff#'\	.	16bb\	.	.	.	.	.	.	8f#/	qui	.	.	8ff#\	.	8ff#\	.
.	.	.	.	.	.	.	.	16ff#'\JJ	.	16bb\JJ	.	.	.	.	.	.	.	.	.	.	.	.	.	.
*tremolo	*	*	*	*	*	*	*	*	*	*	*	*	*	*	*	*	*	*	*	*	*	*	*	*
!	!	!	!	!	!	!	!	!	!	!	!	!	!	!	!	!	!	!	!	!	!	!	!LO:LB:g=original	!
8d\L	.	.	.	16f#/LL	2rfyy	tol-	.	16r	.	16r	.	.	.	.	.	.	16f#/LL	.	.	.	8ff#\	.	(16ff#\LL	.
.	.	.	.	16b/JJ	.	.	.	16ff#'\LL	.	16bb\LL	.	.	.	.	.	.	16b/JJ	.	.	.	.	.	16bb\JJ)	.
8d\	.	.	.	4f#/ 4b	.	-lis	.	16ff#'\	.	16bb\	.	.	.	.	.	.	4b/	tol-	.	.	4ff#\	.	4bb\|	.
.	.	.	.	.	.	.	.	16ff#'\JJ	.	16bb\JJ	.	.	.	.	.	.	.	.	.	.	.	.	.	.
8d\	.	.	.	.	.	.	.	16r	.	16r	.	.	.	.	.	.	.	.	.	.	.	.	.	.
.	.	.	.	.	.	.	.	16ff#'\LL	.	16bb\LL	.	.	.	.	.	.	.	.	.	.	.	.	.	.
!	!	!	!	!	!	!	!	!	!	!	!	!	!	!	!	!	!LO:SIC:v:s=8an	!	!	!	!	!	!	!
8d\J	.	.	.	8f#/ 8a	.	pec-	.	16ff#'\	.	16aa\	.	.	.	.	.	.	8a#X/	-lis	.	.	8ff#\	.	8aan\	.
.	.	.	.	.	.	.	.	16ff#'\JJ	.	16aa\JJ	.	.	.	.	.	.	.	.	.	.	.	.	.	.
*Xtremolo	*	*	*	*	*	*	*	*	*	*	*	*	*	*	*	*	*	*	*	*	*	*	*	*
*	*	*	*	*v	*v	*	*	*	*	*	*	*	*	*	*	*	*	*	*	*	*	*	*	*
=38	=38	=38	=38	=38	=38	=38	=38	=38	=38	=38	=38	=38	=38	=38	=38	=38	=38	=38	=38	=38	=38	=38	=38
!LO:LB:g=original	!	!	!	!LO:LB:g=original	!	!	!	!	!	!	!	!	!	!	!	!	!	!	!	!	!	!	!
8d\L	.	.	.	16e/LL 16g#X	-ca-	.	16r	.	16r	.	.	.	.	.	.	(16g#X\LL	pec-	.	.	8ee\L	.	(16gg#X\LL	.
.	.	.	.	16a/JJ	.	.	16ee'\LL	.	16aa\LL|	.	.	.	.	.	.	16a\JJ)	-ca-	.	.	.	.	16aa\JJ)	.
8c#\J	.	.	.	8e/ 8a	-ta	.	16ee'\	.	16aa'\	.	.	.	.	.	.	8a\	-ta	.	.	8ee\J	.	8aa\|	.
.	.	.	.	.	.	.	16ee'\JJ	.	16aa\JJ|	.	.	.	.	.	.	.	.	.	.	.	.	.	.
8c#\L	.	.	.	8r	.	.	16r	.	16r	.	.	.	.	.	.	8r	.	.	.	8r	.	8r	.
.	.	.	.	.	.	.	16ee'\LL	.	16aa\LL	.	.	.	.	.	.	.	.	.	.	.	.	.	.
8c#\J	.	.	.	8e/	qui	.	16ee'\	.	16aa\	.	.	.	.	.	.	8e/	qui	.	.	8ee\	.	8ee\	.
.	.	.	.	.	.	.	16ee'\JJ	.	16aa\JJ	.	.	.	.	.	.	.	.	.	.	.	.	.	.
*tremolo	*	*	*	*	*	*	*	*	*	*	*	*	*	*	*	*	*	*	*	*	*	*	*
8cX\L	.	.	.	16e/LL	tol-	.	16r	.	16r	.	.	.	.	.	.	16e/LL	.	.	.	8ee\L	.	(16ee\LL	.
.	.	.	.	16a/JJ	.	.	16ee'\LL	.	16aa\LL	.	.	.	.	.	.	16a/JJ	.	.	.	.	.	16aa\JJ)	.
8cX\	.	.	.	4e/ 4a	-lis	.	16ee'\	.	16aa\	.	.	.	.	.	.	4a/	tol-	.	.	8ee\J	.	4aa\|	.
.	.	.	.	.	.	.	16ee'\JJ	.	16aa\JJ	.	.	.	.	.	.	.	.	.	.	.	.	.	.
!	!	!	!	!	!	!	!	!	!LO:LB:g=original	!	!	!	!	!	!	!	!	!	!	!	!	!	!
8cX\	.	.	.	.	.	.	16r	.	16r	.	.	.	.	.	.	.	.	.	.	8ee\L	.	.	.
.	.	.	.	.	.	.	16ee'\LL	.	16aa\LL	.	.	.	.	.	.	.	.	.	.	.	.	.	.
!	!	!	!	!LO:SIC:v:n=2:s=8gn	!	!	!	!	!	!	!	!	!	!	!	!LO:SIC:v:s=8gn	!	!	!	!	!	!LO:SIC:v:s=8ggn	!
8cX\J	.	.	.	8e/ 8g#	pec-	.	16ee'\	.	16ggn\	.	.	.	.	.	.	8g#/	-lis	.	.	8ee\J	.	8gg#\	.
.	.	.	.	.	.	.	16ee'\JJ	.	16gg\JJ	.	.	.	.	.	.	.	.	.	.	.	.	.	.
*Xtremolo	*	*	*	*	*	*	*	*	*	*	*	*	*	*	*	*	*	*	*	*	*	*	*
=39	=39	=39	=39	=39	=39	=39	=39	=39	=39	=39	=39	=39	=39	=39	=39	=39	=39	=39	=39	=39	=39	=39	=39
!	!	!	!	!	!	!	!	!	!	!	!	!	!	!LO:LB:g=original	!	!	!	!	!	!	!	!	!
!	!	!	!	!	!	!	!	!	!	!	!	!	!	!LO:N:vis=1	!	!	!	!	!	!	!	!	!
8c\L	.	.	.	16d/LL 16f#	-ca-	.	16r	.	16r	.	00r	.	.	2r	.	16f#/LL	pec-	00r	00r	16dd\LL	.	(16ff#\LL	.
.	.	.	.	16g/JJ	.	.	16dd'\LL	.	16gg\LL	.	.	.	.	.	.	16g/JJ	-ca-	.	.	16ee\JJ	.	16gg\JJ)	.
!	!	!	!	!	!	!	!	!	!	!	!	!	!	!	!	!LO:N:vis=4	!	!	!	!LO:N:vis=4	!	!	!
8B\J	.	.	.	8d/ 8g	-ta	.	16dd'\	.	16gg\	.	.	.	.	.	.	8g/	-ta	.	.	8dd\	.	8gg\	.
.	.	.	.	.	.	.	16dd'\JJ	.	16gg\JJ	.	.	.	.	.	.	.	.	.	.	.	.	.	.
8A\L 8cnX	.	.	.	8f#/L	mun-	.	16ccn\LL	.	16ff#\LL	.	.	.	.	.	.	8f#/L	mun-	.	.	8dd\L	.	8ff#\L	.
.	.	.	.	.	.	.	16cc\	.	16ff#\	.	.	.	.	.	.	.	.	.	.	.	.	.	.
8A#X\J 8c#	.	.	.	8e/J	.	.	16cc#X\	.	16ee\	.	.	.	.	.	.	8e/J	.	.	.	8cc\J	.	8ee\J	.
.	.	.	.	.	.	.	16cc#\JJ	.	16ee\JJ	.	.	.	.	.	.	.	.	.	.	.	.	.	.
!	!	!	!	!	!	!	!	!	!	!	!	!	!	!	!	!	!	!	!	!	!	!LO:TX:a:t=fis	!
4B\	.	.	.	4d#X/	-di	.	4b/	.	4dd#X\	.	.	.	.	4r	.	4d#X/	-di	.	.	4dd#X\	.	4ff#\	.
4BB/ 4B	.	.	.	8d#/ 8f#	mi-	.	8d#X/L	.	8f#/L	.	.	.	.	8d#X/	mi-	8f#/	mi-	.	.	8dd#\L	.	8ff#\L	.
.	.	.	.	8d#/ 8f#	-se-	.	8d#/J	.	8f#/J	.	.	.	.	8d#/	-se-	8f#/	-se-	.	.	8dd#\J	.	8ff#\J	.
=40	=40	=40	=40	=40	=40	=40	=40	=40	=40	=40	=40	=40	=40	=40	=40	=40	=40	=40	=40	=40	=40	=40	=40
4BB/ 4B	.	.	.	16e/LL 16g	-re-	.	16e/LL	.	16g/LL	.	.	.	.	16e/LL	.	16g\LL	.	.	.	16ee\LL	.	(16gg\LL	.
.	.	.	.	16f#/JJ 16a	.	.	16f#/JJ	.	16a/JJ	.	.	.	.	16f#/JJ	.	16a\JJ	.	.	.	16ff#\JJ	.	16aa\JJ)	.
.	.	.	.	4g/ 4b	.	.	4g/	.	4b/	.	.	.	.	4g/	-re-	4b\	-re-	.	.	4gg\	.	4bb\|	.
4BB/ 4B	.	.	.	.	.	.	.	.	.	.	.	.	.	.	.	.	.	.	.	.	.	.	.
!	!	!	!	!	!	!	!	!	!	!	!	!	!	!	!	!	!	!	!	!LO:LB:g=original	!	!	!
.	.	.	.	16f#/LL 16a	.	.	16f#/LL	.	16a/LL	.	.	.	.	(16f#/LL	.	16a\LL	.	.	.	16ff#\LL	.	(16aa\LL	.
.	.	.	.	16e/JJ 16g	.	.	16e/JJ	.	16g/JJ	.	.	.	.	16e/JJ)	.	16g\JJ	.	.	.	16ee\JJ	.	16gg\JJ)	.
!	!	!	!	!	!	!	!	!	!	!	!	!	!	!	!	!	!	!	!	!	!	!LO:LB:g=original	!
4BB/ 4B	.	.	.	16d#X/LL 16f#	.	.	16d#X/LL	.	16f#/LL	.	.	.	.	(16d#X/LL	.	16f#\LL	.	.	.	16dd#X\LL	.	(16ff#\LL	.
.	.	.	.	16e/JJ 16g	.	.	16e/JJ	.	16g/JJ	.	.	.	.	16e/JJ)	.	16g\JJ	.	.	.	16ee\JJ	.	16gg\JJ)	.
.	.	.	.	4f#/ 4a	.	.	4f#/	.	4a/	.	.	.	.	4f#/	.	4a\	.	.	.	4ff#\	.	4aa\|	.
4BB/ 4B	.	.	.	.	.	.	.	.	.	.	.	.	.	.	.	.	.	.	.	.	.	.	.
.	.	.	.	16e/LL 16g	.	.	16e/LL	.	16g/LL	.	.	.	.	(16e/LL	-re	16g\LL	-re	.	.	16ee\LL	.	(16gg\LL	.
.	.	.	.	16d#/JJ 16f#	-re	.	16d#/JJ	.	16f#/JJ	.	.	.	.	16d#/JJ)	.	16f#\JJ	.	.	.	16dd#\JJ	.	16ff#\JJ)	.
=41	=41	=41	=41	=41	=41	=41	=41	=41	=41	=41	=41	=41	=41	=41	=41	=41	=41	=41	=41	=41	=41	=41	=41
4E/	.	.	.	16e/LL 16g	no-	.	16e/LL	.	16b\LL	.	.	.	.	(16e/LL	no-	16g\LL	no-	.	.	(16ee\LL	.	(16gg\LL	.
.	.	.	.	16g/JJ 16b	.	.	16g/	.	16dd\	.	.	.	.	16g/JJ)	.	16b\JJ	.	.	.	16gg\JJ)	.	16bb\JJ)	.
.	.	.	.	16a/LL 16cc	.	.	16a/	.	16cc\	.	.	.	.	(16a\LL	.	16cc\LL	.	.	.	(16aa\LL	.	(16ccc\LL	.
.	.	.	.	16g/JJ 16b	.	.	16g/JJ	.	16b\JJ	.	.	.	.	16g\JJ)	.	16b\JJ	.	.	.	16gg\JJ)	.	16bb\JJ)	.
!	!	!	!	!	!	!	!	!	!	!	!	!	!	!	!	!LO:LB:g=original	!	!	!	!	!	!	!
16r	.	.	.	4f#/ 4a	-bis	.	4f#/	.	4a/	.	.	.	.	4f#\	-bis	4a\	-bis	.	.	4ff#\|	.	4aa\|	.
!	!	!	!LO:DY:b:t=forte	!	!	!	!	!	!	!	!	!	!	!	!	!	!	!	!	!	!	!	!
16BB/LL	.	.	f	.	.	.	.	.	.	.	.	.	.	.	.	.	.	.	.	.	.	.	.
16C#/	.	.	.	.	.	.	.	.	.	.	.	.	.	.	.	.	.	.	.	.	.	.	.
16D#X/JJ	.	.	.	.	.	.	.	.	.	.	.	.	.	.	.	.	.	.	.	.	.	.	.
4E/	.	.	.	16e/LL 16g	no-	.	16e/LL	.	16g\LL	.	.	.	.	(16e/LL	no-	16g\LL	no-	.	.	(16ee\LL	.	(16gg\LL	.
.	.	.	.	16g/JJ 16b	.	.	16g/	.	16b\	.	.	.	.	16g/JJ)	.	16b\JJ	.	.	.	16gg\JJ)	.	16bb\JJ)	.
.	.	.	.	16a/LL 16cc	.	.	16a/	.	16cc\	.	.	.	.	(16a\LL	.	16cc\LL	.	.	.	(16aa\LL	.	(16ccc\LL	.
.	.	.	.	16g/JJ 16b	.	.	16g/JJ	.	16b\JJ	.	.	.	.	16g\JJ)	.	16b\JJ	.	.	.	16gg\JJ)	.	16bb\JJ)	.
16r	.	.	.	4f#/ 4a	-bis	.	4f#/	.	4a/	.	.	.	.	4f#/	-bis	4a\	-bis	.	.	4ff#\	.	4aa\|	.
!	!	!	!LO:DY:b:t=fort	!	!	!	!	!	!	!	!	!	!	!	!	!	!	!	!	!	!	!	!
16BB/LL	.	.	f	.	.	.	.	.	.	.	.	.	.	.	.	.	.	.	.	.	.	.	.
16C#/	.	.	.	.	.	.	.	.	.	.	.	.	.	.	.	.	.	.	.	.	.	.	.
16D#X/JJ	.	.	.	.	.	.	.	.	.	.	.	.	.	.	.	.	.	.	.	.	.	.	.
=42	=42	=42	=42	=42	=42	=42	=42	=42	=42	=42	=42	=42	=42	=42	=42	=42	=42	=42	=42	=42	=42	=42	=42
*	*	*	*	*tuplet	*	*	*	*	*	*	*	*	*	*	*	*Xtuplet	*	*	*	*	*	*Xtuplet	*
!	!	!	!	!LO:LB:g=original	!	!	!	!	!	!	!	!	!	!	!	!	!	!	!	!	!	!	!
!LO:LB:g=original	!	!	!	!LO:TX:t=P:problem:klamra łukowa	!	!	!	!	!	!	!	!	!	!	!	!	!	!	!	!	!	!	!
!LO:TX:t=P:problem:mixed beam	!	!	!	!LO:TX:a:t=Solo	!	!	!	!	!	!	!	!	!	!	!	!LO:TX:t=P:problem:klamra łukowa 	!	!	!	!	!	!	!
8G\L	.	.	.	24g\LL	no-	.	16e/LL	.	24g\LL	.	.	.	.	8e/L	no-	24g\LL	mi-	.	.	8ee\L	.	(24g\LL	.
.	.	.	.	24b\	.	.	.	.	24b\	.	.	.	.	.	.	24b\	.	.	.	.	.	24b\)	.
.	.	.	.	.	.	.	16b/	.	.	.	.	.	.	.	.	.	.	.	.	.	.	.	.
.	.	.	.	24ee\JJ	.	.	.	.	24ee\JJ	.	.	.	.	.	.	24ee\JJ	-se-	.	.	.	.	24ee\JJ|	.
!	!	!	!	!	!	!	!	!	!	!	!	!	!	!	!	!LO:N:vis=8	!	!	!	!	!	!	!
8A\	.	.	.	16cc\LL	.	.	16cc/	.	16ccn\LL	.	.	.	.	8a/J	.	16cc\LL	-re-	.	.	8ee\	.	16cc\LL	.
!	!	!	!	!	!	!	!	!	!	!	!	!	!	!	!	!LO:N:vis=8	!	!	!	!	!	!	!
.	.	.	.	16ff#\JJ	.	.	16b/JJ	.	16ff#\JJ	.	.	.	.	.	.	16ff#\JJ	-re	.	.	.	.	16ff#\JJ	.
!	!	!	!	!	!	!	!	!	!	!	!	!	!	!	!	!	!	!	!	!	!	!LO:SIC:v:s=8eee\L	!
8B\	.	.	.	8ee\L	-bis	.	8g/L	.	8ee\L	.	.	.	.	8cc\L	.	8ee\L	no-	.	.	8bb\	.	8ddd\L	.
!	!	!	!	!LO:TX:a:t=Solo	!	!	!	!	!	!	!	!	!	!	!	!	!	!	!	!	!	!LO:SIC:v:s=8ddd#\J	!
8BB/J	.	.	.	8dd#X\J	.	.	8f#/J	.	8dd#X\J	.	.	.	.	8b\J	.	8dd#X\J	.	.	.	8bb\J	.	8ccc#X\J	.
!	!	!	!	!	!	!	!LO:LB:g=original	!	!	!	!	!	!	!	!	!	!	!	!	!	!	!	!
!	!	!	!	!	!	!	!LO:N:vis=4	!	!	!	!	!	!	!LO:LB:g=original	!	!	!	!	!	!	!	!LO:SIC:v:s=4eee\	!
4E/	.	.	.	32ee\LLL	.	.	8g/	.	8ee\	.	.	.	.	4g\	-bis	4ee\	-bis	.	.	4ee\	.	4ddd\	.
.	.	.	.	32gg\	.	.	.	.	.	.	.	.	.	.	.	.	.	.	.	.	.	.	.
.	.	.	.	32ff#\	.	.	.	.	.	.	.	.	.	.	.	.	.	.	.	.	.	.	.
.	.	.	.	32aa\JJJ	.	.	.	.	.	.	.	.	.	.	.	.	.	.	.	.	.	.	.
.	.	.	.	32gg\LLL	.	.	8r	.	8r	.	.	.	.	.	.	.	.	.	.	.	.	.	.
.	.	.	.	32bb\	.	.	.	.	.	.	.	.	.	.	.	.	.	.	.	.	.	.	.
.	.	.	.	32aa\	.	.	.	.	.	.	.	.	.	.	.	.	.	.	.	.	.	.	.
.	.	.	.	32ccc\JJJ	.	.	.	.	.	.	.	.	.	.	.	.	.	.	.	.	.	.	.
4E/	.	.	.	16gg\LL 16bb	.	.	16r	.	16r	.	.	.	.	4r	.	4r	.	.	.	4r	.	4r	.
.	.	.	.	16gg\ 16bbSsS	.	.	16g/LL|	.	16b\LL	.	.	.	.	.	.	.	.	.	.	.	.	.	.
.	.	.	.	16aa\ 16ccc	.	.	(16a/	.	16cc\	.	.	.	.	.	.	.	.	.	.	.	.	.	.
.	.	.	.	16gg\JJ 16bb	.	.	16g/JJ)	.	16b\JJ	.	.	.	.	.	.	.	.	.	.	.	.	.	.
=43	=43	=43	=43	=43	=43	=43	=43	=43	=43	=43	=43	=43	=43	=43	=43	=43	=43	=43	=43	=43	=43	=43	=43
!	!	!	!	!	!	!	!	!	!	!	!	!	!	!	!	!	!	!	!	!	!	!LO:LB:g=original	!
!	!	!	!	!	!	!	!	!	!	!	!	!	!	!LO:TX:a:t=5	!	!LO:TX:a:t=5	!	!	!	!LO:TX:a:t=5	!	!LO:TX:a:t=5	!
4B\	.	.	.	32dd#X\LLL	.	.	4r	.	4r	.	00r	.	.	00r	.	00r	.	00r	00r	00r	.	00r	.
.	.	.	.	32ff#\	.	.	.	.	.	.	.	.	.	.	.	.	.	.	.	.	.	.	.
.	.	.	.	32ee\	.	.	.	.	.	.	.	.	.	.	.	.	.	.	.	.	.	.	.
.	.	.	.	32gg\JJJ	.	.	.	.	.	.	.	.	.	.	.	.	.	.	.	.	.	.	.
.	.	.	.	32ff#\LLL	.	.	.	.	.	.	.	.	.	.	.	.	.	.	.	.	.	.	.
.	.	.	.	32aa\	.	.	.	.	.	.	.	.	.	.	.	.	.	.	.	.	.	.	.
.	.	.	.	32gg\	.	.	.	.	.	.	.	.	.	.	.	.	.	.	.	.	.	.	.
.	.	.	.	32bb\JJJ	.	.	.	.	.	.	.	.	.	.	.	.	.	.	.	.	.	.	.
4B\	.	.	.	16ff#\LL 16aa	.	.	16r	.	16r	.	.	.	.	.	.	.	.	.	.	.	.	.	.
.	.	.	.	16ff#\ 16aaSSS	.	.	16f#/LL	.	16a/LL	.	.	.	.	.	.	.	.	.	.	.	.	.	.
.	.	.	.	16gg\ 16bb	.	.	16g/	.	16b/	.	.	.	.	.	.	.	.	.	.	.	.	.	.
.	.	.	.	16ff#\JJ 16aa	.	.	16f#/JJ	.	16a/JJ	.	.	.	.	.	.	.	.	.	.	.	.	.	.
16E\LL	.	.	.	32gg\LLL	.	.	2r	.	2r	.	.	.	.	.	.	.	.	.	.	.	.	.	.
.	.	.	.	(32ff#\	.	.	.	.	.	.	.	.	.	.	.	.	.	.	.	.	.	.	.
16B\	.	.	.	32gg\	.	.	.	.	.	.	.	.	.	.	.	.	.	.	.	.	.	.	.
.	.	.	.	32aa\JJJ	.	.	.	.	.	.	.	.	.	.	.	.	.	.	.	.	.	.	.
16G\	.	.	.	32bb\LLL	.	.	.	.	.	.	.	.	.	.	.	.	.	.	.	.	.	.	.
.	.	.	.	32gg\	.	.	.	.	.	.	.	.	.	.	.	.	.	.	.	.	.	.	.
16B\JJ	.	.	.	32ff#\)	.	.	.	.	.	.	.	.	.	.	.	.	.	.	.	.	.	.	.
.	.	.	.	32ee\JJJ	.	.	.	.	.	.	.	.	.	.	.	.	.	.	.	.	.	.	.
16F#\LL	.	.	.	32dd#X\LLL	.	.	.	.	.	.	.	.	.	.	.	.	.	.	.	.	.	.	.
.	.	.	.	32ff#\	.	.	.	.	.	.	.	.	.	.	.	.	.	.	.	.	.	.	.
16B\	.	.	.	32dd#\	.	.	.	.	.	.	.	.	.	.	.	.	.	.	.	.	.	.	.
.	.	.	.	32b\JJJ	.	.	.	.	.	.	.	.	.	.	.	.	.	.	.	.	.	.	.
16A\	.	.	.	32dd#\LLL	.	.	.	.	.	.	.	.	.	.	.	.	.	.	.	.	.	.	.
.	.	.	.	32ff#\	.	.	.	.	.	.	.	.	.	.	.	.	.	.	.	.	.	.	.
16B\JJ	.	.	.	32dd#\	.	.	.	.	.	.	.	.	.	.	.	.	.	.	.	.	.	.	.
.	.	.	.	32b\JJJ	.	.	.	.	.	.	.	.	.	.	.	.	.	.	.	.	.	.	.
=44	=44	=44	=44	=44	=44	=44	=44	=44	=44	=44	=44	=44	=44	=44	=44	=44	=44	=44	=44	=44	=44	=44	=44
!	!	!	!	!	!	!	!	!	!LO:LB:g=original	!	!	!	!	!	!	!	!	!	!	!	!	!	!
!LO:LB:g=original	!	!	!	!LO:LB:g=original	!	!	!LO:TX:a:t=2.	!	!LO:TX:a:t=2.	!	!	!	!	!	!	!	!	!	!	!	!	!	!
16E\LL	.	.	.	32gg\LLL	.	.	0r	.	0r	.	.	.	.	.	.	.	.	.	.	.	.	.	.
.	.	.	.	(32ff#\	.	.	.	.	.	.	.	.	.	.	.	.	.	.	.	.	.	.	.
16B\	.	.	.	32gg\	.	.	.	.	.	.	.	.	.	.	.	.	.	.	.	.	.	.	.
.	.	.	.	32aa\JJJ	.	.	.	.	.	.	.	.	.	.	.	.	.	.	.	.	.	.	.
16G\	.	.	.	32bb\LLL	.	.	.	.	.	.	.	.	.	.	.	.	.	.	.	.	.	.	.
.	.	.	.	32aa\	.	.	.	.	.	.	.	.	.	.	.	.	.	.	.	.	.	.	.
16B\JJ	.	.	.	32ff#\)	.	.	.	.	.	.	.	.	.	.	.	.	.	.	.	.	.	.	.
.	.	.	.	32ee\JJJ	.	.	.	.	.	.	.	.	.	.	.	.	.	.	.	.	.	.	.
16F#\LL	.	.	.	32dd#X\LLL	.	.	.	.	.	.	.	.	.	.	.	.	.	.	.	.	.	.	.
.	.	.	.	(32ff#\	.	.	.	.	.	.	.	.	.	.	.	.	.	.	.	.	.	.	.
16B\	.	.	.	32dd#\	.	.	.	.	.	.	.	.	.	.	.	.	.	.	.	.	.	.	.
.	.	.	.	32b\JJJ	.	.	.	.	.	.	.	.	.	.	.	.	.	.	.	.	.	.	.
16A\	.	.	.	32dd#\LLL	.	.	.	.	.	.	.	.	.	.	.	.	.	.	.	.	.	.	.
.	.	.	.	32ff#\	.	.	.	.	.	.	.	.	.	.	.	.	.	.	.	.	.	.	.
16B\JJ	.	.	.	32dd#\)	.	.	.	.	.	.	.	.	.	.	.	.	.	.	.	.	.	.	.
.	.	.	.	32b\JJJ	.	.	.	.	.	.	.	.	.	.	.	.	.	.	.	.	.	.	.
8E/L	.	.	.	(32ee\LLL	.	.	.	.	.	.	.	.	.	.	.	.	.	.	.	.	.	.	.
.	.	.	.	32ff#\	.	.	.	.	.	.	.	.	.	.	.	.	.	.	.	.	.	.	.
.	.	.	.	32ee\	.	.	.	.	.	.	.	.	.	.	.	.	.	.	.	.	.	.	.
.	.	.	.	32ff#\)JJJ	.	.	.	.	.	.	.	.	.	.	.	.	.	.	.	.	.	.	.
8E/J	.	.	.	(32gg\LLL	.	.	.	.	.	.	.	.	.	.	.	.	.	.	.	.	.	.	.
.	.	.	.	32aa\	.	.	.	.	.	.	.	.	.	.	.	.	.	.	.	.	.	.	.
.	.	.	.	32gg\	.	.	.	.	.	.	.	.	.	.	.	.	.	.	.	.	.	.	.
.	.	.	.	32aa\JJJ)	.	.	.	.	.	.	.	.	.	.	.	.	.	.	.	.	.	.	.
!	!	!	!	!LO:TX:t=P:problem:mixed beam	!	!	!	!	!	!	!	!	!	!	!	!	!	!	!	!	!	!	!
8G\L	.	.	.	(16bb\LL	.	.	.	.	.	.	.	.	.	.	.	.	.	.	.	.	.	.	.
.	.	.	.	16b/)	.	.	.	.	.	.	.	.	.	.	.	.	.	.	.	.	.	.	.
8G\J	.	.	.	16b/|>	.	.	.	.	.	.	.	.	.	.	.	.	.	.	.	.	.	.	.
.	.	.	.	16b/JJ|>	.	.	.	.	.	.	.	.	.	.	.	.	.	.	.	.	.	.	.
=45	=45	=45	=45	=45	=45	=45	=45	=45	=45	=45	=45	=45	=45	=45	=45	=45	=45	=45	=45	=45	=45	=45	=45
8A\L	.	.	.	16cc\LL	.	.	.	.	.	.	.	.	.	.	.	.	.	.	.	.	.	.	.
.	.	.	.	16ccc\J	.	.	.	.	.	.	.	.	.	.	.	.	.	.	.	.	.	.	.
8F#\J	.	.	.	8.ccc\J	.	.	.	.	.	.	.	.	.	.	.	.	.	.	.	.	.	.	.
8D#X\L	.	.	.	.	.	.	.	.	.	.	.	.	.	.	.	.	.	.	.	.	.	.	.
.	.	.	.	32bb\LLL	.	.	.	.	.	.	.	.	.	.	.	.	.	.	.	.	.	.	.
.	.	.	.	32ccc\JJJ	.	.	.	.	.	.	.	.	.	.	.	.	.	.	.	.	.	.	.
8BB\J	.	.	.	(32ddd\LLL	.	.	.	.	.	.	.	.	.	.	.	.	.	.	.	.	.	.	.
.	.	.	.	32ccc\	.	.	.	.	.	.	.	.	.	.	.	.	.	.	.	.	.	.	.
.	.	.	.	32bb\	.	.	.	.	.	.	.	.	.	.	.	.	.	.	.	.	.	.	.
.	.	.	.	32aa\JJJ)	.	.	.	.	.	.	.	.	.	.	.	.	.	.	.	.	.	.	.
8E\L	.	.	.	32gg\LLL	.	.	.	.	.	.	.	.	.	.	.	.	.	.	.	.	.	.	.
.	.	.	.	(32aa\	.	.	.	.	.	.	.	.	.	.	.	.	.	.	.	.	.	.	.
.	.	.	.	32bb\	.	.	.	.	.	.	.	.	.	.	.	.	.	.	.	.	.	.	.
.	.	.	.	32aa\JJJ	.	.	.	.	.	.	.	.	.	.	.	.	.	.	.	.	.	.	.
8G\J	.	.	.	32bb\LLL	.	.	.	.	.	.	.	.	.	.	.	.	.	.	.	.	.	.	.
.	.	.	.	32gg\	.	.	.	.	.	.	.	.	.	.	.	.	.	.	.	.	.	.	.
.	.	.	.	32ff#\)	.	.	.	.	.	.	.	.	.	.	.	.	.	.	.	.	.	.	.
.	.	.	.	32ee\JJJ	.	.	.	.	.	.	.	.	.	.	.	.	.	.	.	.	.	.	.
8A\L	.	.	.	32ff#\LLL	.	.	.	.	.	.	.	.	.	.	.	.	.	.	.	.	.	.	.
.	.	.	.	(32gg\	.	.	.	.	.	.	.	.	.	.	.	.	.	.	.	.	.	.	.
.	.	.	.	32aa\	.	.	.	.	.	.	.	.	.	.	.	.	.	.	.	.	.	.	.
.	.	.	.	32gg\JJJ	.	.	.	.	.	.	.	.	.	.	.	.	.	.	.	.	.	.	.
8B\J	.	.	.	32aa\LLL	.	.	.	.	.	.	.	.	.	.	.	.	.	.	.	.	.	.	.
.	.	.	.	32ff#\	.	.	.	.	.	.	.	.	.	.	.	.	.	.	.	.	.	.	.
.	.	.	.	32ee\)	.	.	.	.	.	.	.	.	.	.	.	.	.	.	.	.	.	.	.
.	.	.	.	32dd#X\JJJ	.	.	.	.	.	.	.	.	.	.	.	.	.	.	.	.	.	.	.
=46	=46	=46	=46	=46	=46	=46	=46	=46	=46	=46	=46	=46	=46	=46	=46	=46	=46	=46	=46	=46	=46	=46	=46
*clefG2	*	*	*	*	*	*	*	*	*	*	*	*	*	*	*	*	*	*	*	*	*	*	*
!LO:LB:g=original	!	!	!	!LO:LB:g=original	!	!	!	!	!	!	!	!	!	!	!	!	!	!	!	!	!	!	!
8e/	.	.	.	32ee\LLL	.	.	8r	.	8r	.	.	.	.	.	.	.	.	.	.	.	.	.	.
.	.	.	.	32b\	.	.	.	.	.	.	.	.	.	.	.	.	.	.	.	.	.	.	.
.	.	.	.	32bb\	.	.	.	.	.	.	.	.	.	.	.	.	.	.	.	.	.	.	.
.	.	.	.	32b\JJJ	.	.	.	.	.	.	.	.	.	.	.	.	.	.	.	.	.	.	.
16r	.	.	.	32bb\LLL	.	.	16r	.	16r	.	.	.	.	.	.	.	.	.	.	.	.	.	.
.	.	.	.	32b\	.	.	.	.	.	.	.	.	.	.	.	.	.	.	.	.	.	.	.
16e/	.	.	.	32gg\	.	.	16e/	.	16g/	.	.	.	.	.	.	.	.	.	.	.	.	.	.
.	.	.	.	32b\JJJ	.	.	.	.	.	.	.	.	.	.	.	.	.	.	.	.	.	.	.
16f#/LL	.	.	.	32aa\LLL	.	.	(16f#/LL	.	16a/LL	.	.	.	.	.	.	.	.	.	.	.	.	.	.
.	.	.	.	32b\	.	.	.	.	.	.	.	.	.	.	.	.	.	.	.	.	.	.	.
16e/	.	.	.	32gg\	.	.	16e/J)	.	16g/J	.	.	.	.	.	.	.	.	.	.	.	.	.	.
.	.	.	.	32b\JJJ	.	.	.	.	.	.	.	.	.	.	.	.	.	.	.	.	.	.	.
16d#X/	.	.	.	32ff#\LLL	.	.	8d#X/J	.	8f#/J	.	.	.	.	.	.	.	.	.	.	.	.	.	.
.	.	.	.	32b\	.	.	.	.	.	.	.	.	.	.	.	.	.	.	.	.	.	.	.
16f#/JJ	.	.	.	32aa\	.	.	.	.	.	.	.	.	.	.	.	.	.	.	.	.	.	.	.
.	.	.	.	32b\JJJ	.	.	.	.	.	.	.	.	.	.	.	.	.	.	.	.	.	.	.
!	!	!	!	!	!	!	!	!	!LO:N:vis=4	!	!	!	!	!	!	!	!	!	!	!	!	!	!
8e/	.	.	.	32gg\LLL	.	.	8e/	.	8g/	.	.	.	.	.	.	.	.	.	.	.	.	.	.
.	.	.	.	32b\	.	.	.	.	.	.	.	.	.	.	.	.	.	.	.	.	.	.	.
.	.	.	.	32bb\	.	.	.	.	.	.	.	.	.	.	.	.	.	.	.	.	.	.	.
.	.	.	.	32b\JJJ	.	.	.	.	.	.	.	.	.	.	.	.	.	.	.	.	.	.	.
!	!	!	!	!	!	!	!	!	!LO:N:vis=32	!	!	!	!	!	!	!	!	!	!	!	!	!	!
16r	.	.	.	32bb\LLL	.	.	16r	.	16r	.	.	.	.	.	.	.	.	.	.	.	.	.	.
.	.	.	.	32b\	.	.	.	.	.	.	.	.	.	.	.	.	.	.	.	.	.	.	.
16e/	.	.	.	32gg\	.	.	16e/	.	16g/	.	.	.	.	.	.	.	.	.	.	.	.	.	.
.	.	.	.	32b\JJJ	.	.	.	.	.	.	.	.	.	.	.	.	.	.	.	.	.	.	.
16f#/LL	.	.	.	32aa\LLL	.	.	16f#/LL	.	16a/LL	.	.	.	.	.	.	.	.	.	.	.	.	.	.
.	.	.	.	32b\	.	.	.	.	.	.	.	.	.	.	.	.	.	.	.	.	.	.	.
16e/	.	.	.	32gg\	.	.	16e/J	.	16g/J	.	.	.	.	.	.	.	.	.	.	.	.	.	.
.	.	.	.	32b\JJJ	.	.	.	.	.	.	.	.	.	.	.	.	.	.	.	.	.	.	.
16d#X/	.	.	.	32ff#\LLL	.	.	8d#/J	.	8f#/J	.	.	.	.	.	.	.	.	.	.	.	.	.	.
.	.	.	.	32b\	.	.	.	.	.	.	.	.	.	.	.	.	.	.	.	.	.	.	.
16f#/JJ	.	.	.	32aa\	.	.	.	.	.	.	.	.	.	.	.	.	.	.	.	.	.	.	.
.	.	.	.	32b\JJJ	.	.	.	.	.	.	.	.	.	.	.	.	.	.	.	.	.	.	.
=47	=47	=47	=47	=47	=47	=47	=47	=47	=47	=47	=47	=47	=47	=47	=47	=47	=47	=47	=47	=47	=47	=47	=47
!	!	!	!	!	!	!	!LO:N:vis=4	!	!	!	!	!	!	!	!	!	!	!	!	!	!	!	!
8e/	.	.	.	16b\LL 16gg|	.	.	8e/	.	8g/	.	1r	.	.	1r	.	1r	.	0r	0r	1r	.	1r	.
.	.	.	.	32b\L 32bb|	.	.	.	.	.	.	.	.	.	.	.	.	.	.	.	.	.	.	.
.	.	.	.	32b\JJJ 32bb|	.	.	.	.	.	.	.	.	.	.	.	.	.	.	.	.	.	.	.
16r	.	.	.	4.b\ [4.bb	.	.	8r	.	8r	.	.	.	.	.	.	.	.	.	.	.	.	.	.
16e/ 16g 16b	.	.	.	.	.	.	.	.	.	.	.	.	.	.	.	.	.	.	.	.	.	.	.
16f#/LL 16a	.	.	.	.	.	.	4r	.	4r	.	.	.	.	.	.	.	.	.	.	.	.	.	.
16e/J 16g	.	.	.	.	.	.	.	.	.	.	.	.	.	.	.	.	.	.	.	.	.	.	.
8B/J 8f#	.	.	.	.	.	.	.	.	.	.	.	.	.	.	.	.	.	.	.	.	.	.	.
8e/ 8g	.	.	.	16b\LL 16bb]	.	.	2r	.	2r	.	.	.	.	.	.	.	.	.	.	.	.	.	.
.	.	.	.	32b\L 32bb|	.	.	.	.	.	.	.	.	.	.	.	.	.	.	.	.	.	.	.
.	.	.	.	32b\JJJ 32bb|	.	.	.	.	.	.	.	.	.	.	.	.	.	.	.	.	.	.	.
16r	.	.	.	4.b\ 4.bb	.	.	.	.	.	.	.	.	.	.	.	.	.	.	.	.	.	.	.
16e/ 16g	.	.	.	.	.	.	.	.	.	.	.	.	.	.	.	.	.	.	.	.	.	.	.
16f#/LL 16a	.	.	.	.	.	.	.	.	.	.	.	.	.	.	.	.	.	.	.	.	.	.	.
16e/J 16g	.	.	.	.	.	.	.	.	.	.	.	.	.	.	.	.	.	.	.	.	.	.	.
8B/J 8f#	.	.	.	.	.	.	.	.	.	.	.	.	.	.	.	.	.	.	.	.	.	.	.
=48	=48	=48	=48	=48	=48	=48	=48	=48	=48	=48	=48	=48	=48	=48	=48	=48	=48	=48	=48	=48	=48	=48	=48
*clefF4	*	*	*	*	*	*	*	*	*	*	*	*	*	*	*	*	*	*	*	*	*	*	*
!	!	!	!	!LO:TX:a:t=Tutti:B	!	!	!	!LO:DY:b:t=Meze forto.	!	!LO:DY:b:Bi:t=mez forto	!	!	!LO:DY:a:Bi:t=forte	!	!	!	!	!	!	!LO:TX:a:t=Tutti	!	!	!LO:DY:a:t=forte
!	!	!	!	!	!	!	!	!	!	!	!	!	!	!	!	!	!	!	!	!LO:LB:g=original	!	!	!
2e\	.	.	.	2b\ 2gg	.	.	16g/KL	mf	16r	mf	2E\	Do-	f	2b\	Do-	2gg\	Do-	.	.	4ffn\	.	2bb\	f
.	.	.	.	.	.	.	8g/	.	16b\LL	.	.	.	.	.	.	.	.	.	.	.	.	.	.
.	.	.	.	.	.	.	.	.	16gg\	.	.	.	.	.	.	.	.	.	.	.	.	.	.
.	.	.	.	.	.	.	8g/	.	16b\JJ	.	.	.	.	.	.	.	.	.	.	.	.	.	.
!	!	!	!	!	!	!	!	!	!LO:TX:t=P:problem:mixed beam	!	!	!	!	!	!	!	!	!	!	!	!	!	!
.	.	.	.	.	.	.	.	.	16gg\LL	.	.	.	.	.	.	.	.	.	.	4ff\	.	.	.
.	.	.	.	.	.	.	8g/	.	16b/	.	.	.	.	.	.	.	.	.	.	.	.	.	.
.	.	.	.	.	.	.	.	.	16gg\	.	.	.	.	.	.	.	.	.	.	.	.	.	.
.	.	.	.	.	.	.	[>16g/Jk	.	16b/JJ	.	.	.	.	.	.	.	.	.	.	.	.	.	.
2e\	.	.	.	2b\ 2gg	.	.	16g/KL]	.	16r	.	2E\	-na	.	2cc\	-na	2gg\	-na	.	.	2ee\	.	2ccc\	.
.	.	.	.	.	.	.	8g/	.	16cc\LL	.	.	.	.	.	.	.	.	.	.	.	.	.	.
.	.	.	.	.	.	.	.	.	16gg\	.	.	.	.	.	.	.	.	.	.	.	.	.	.
.	.	.	.	.	.	.	8g/	.	16cc\JJ	.	.	.	.	.	.	.	.	.	.	.	.	.	.
.	.	.	.	.	.	.	.	.	16gg\LL	.	.	.	.	.	.	.	.	.	.	.	.	.	.
.	.	.	.	.	.	.	8g/	.	16cc\	.	.	.	.	.	.	.	.	.	.	.	.	.	.
.	.	.	.	.	.	.	.	.	16gg\	.	.	.	.	.	.	.	.	.	.	.	.	.	.
.	.	.	.	.	.	.	(>16g/Jk	.	16cc\JJ	.	.	.	.	.	.	.	.	.	.	.	.	.	.
=49	=49	=49	=49	=49	=49	=49	=49	=49	=49	=49	=49	=49	=49	=49	=49	=49	=49	=49	=49	=49	=49	=49	=49
*^	*	*	*	*	*	*	*	*	*	*	*	*	*	*	*	*	*	*	*	*	*	*	*
2e\	2rCyy	.	.	.	2cc#\ 2gg	.	.	16a/KL)	.	16r	.	2E\	no-	.	2cc#X\	no-	2gg\	no-	1r	1r	2ee\	.	2ccc#X\	.
.	.	.	.	.	.	.	.	8a/	.	16cc#X\LL	.	.	.	.	.	.	.	.	.	.	.	.	.	.
.	.	.	.	.	.	.	.	.	.	16gg\	.	.	.	.	.	.	.	.	.	.	.	.	.	.
.	.	.	.	.	.	.	.	8a/	.	16cc#\JJ	.	.	.	.	.	.	.	.	.	.	.	.	.	.
.	.	.	.	.	.	.	.	.	.	16gg\LL	.	.	.	.	.	.	.	.	.	.	.	.	.	.
.	.	.	.	.	.	.	.	8a/	.	16cc#\	.	.	.	.	.	.	.	.	.	.	.	.	.	.
.	.	.	.	.	.	.	.	.	.	16gg\	.	.	.	.	.	.	.	.	.	.	.	.	.	.
.	.	.	.	.	.	.	.	[>16a/Jk	.	16cc#\JJ	.	.	.	.	.	.	.	.	.	.	.	.	.	.
!	!	!	!	!	!	!	!	!	!	!	!	!	!	!	!	!	!	!	!	!	!	!	!LO:TX:a:t=d	!
2f#/	2d\	.	.	.	2dd\ 2ff#	.	.	16a/KL]	.	16r	.	2D\	-bis	.	2dd\	-bis	2ff#\	-bis	.	.	2dd\	.	2ddd\	.
.	.	.	.	.	.	.	.	8a/	.	16dd\LL	.	.	.	.	.	.	.	.	.	.	.	.	.	.
.	.	.	.	.	.	.	.	.	.	16ff#\	.	.	.	.	.	.	.	.	.	.	.	.	.	.
.	.	.	.	.	.	.	.	8a/	.	16dd\JJ	.	.	.	.	.	.	.	.	.	.	.	.	.	.
.	.	.	.	.	.	.	.	.	.	16ff#\LL	.	.	.	.	.	.	.	.	.	.	.	.	.	.
.	.	.	.	.	.	.	.	8a/	.	16dd\	.	.	.	.	.	.	.	.	.	.	.	.	.	.
.	.	.	.	.	.	.	.	.	.	16ff#\	.	.	.	.	.	.	.	.	.	.	.	.	.	.
.	.	.	.	.	.	.	.	[>16a/Jk	.	16dd\JJ	.	.	.	.	.	.	.	.	.	.	.	.	.	.
*v	*v	*	*	*	*	*	*	*	*	*	*	*	*	*	*	*	*	*	*	*	*	*	*	*
=50	=50	=50	=50	=50	=50	=50	=50	=50	=50	=50	=50	=50	=50	=50	=50	=50	=50	=50	=50	=50	=50	=50	=50
!	!	!	!	!	!	!	!LO:TX:t=P:problem:brak dokończenia ligatury	!	!	!	!	!	!	!	!	!	!	!	!	!	!	!	!
!	!	!	!	!	!	!	!LO:LB:g=original	!	!LO:TX:t=P:problem:brak pauzy szesnastkowej	!	!	!	!	!	!	!	!	!	!	!	!	!	!
2F#\ 2d	.	.	.	2ccnX\ 2aa	.	.	16a/KL]	.	16ryy	.	2D\	pa-	.	2ccn\	Pa-	2aa\	pa-	4d/	4a\	4ff#\	.	4cccn\	.
.	.	.	.	.	.	.	8a/	.	16ccn\LL	.	.	.	.	.	.	.	.	.	.	.	.	.	.
.	.	.	.	.	.	.	.	.	16aa\	.	.	.	.	.	.	.	.	.	.	.	.	.	.
.	.	.	.	.	.	.	8a/	.	16cc\JJ	.	.	.	.	.	.	.	.	.	.	.	.	.	.
.	.	.	.	.	.	.	.	.	(16aa\LL	.	.	.	.	.	.	.	.	8d/L	8a\L	4ff#\	.	4ccc\	.
.	.	.	.	.	.	.	8a/	.	16cc\)	.	.	.	.	.	.	.	.	.	.	.	.	.	.
.	.	.	.	.	.	.	.	.	16aa\	.	.	.	.	.	.	.	.	8d/J	8a\J	.	.	.	.
.	.	.	.	.	.	.	16a/Jk	.	16cc\JJ	.	.	.	.	.	.	.	.	.	.	.	.	.	.
!	!	!	!	!	!	!	!	!	!LO:LB:g=original	!	!	!	!	!	!	!	!	!	!	!	!	!	!
!	!	!	!	!	!	!	!	!	!	!	!	!	!	!	!	!	!	!	!	!LO:TX:b:t=50	!	!	!
2F#;\ 2d	.	.	.	2cc;\ 2aa	.	.	2a;/	.	2cc\ 2aa	.	2D;\	-cem	.	2cc\	-cem.	2aa\	-cem.	2d;/	2a;\	2ff#\	.	2ccc;\	.
!	!	!	!	!	!	!	!LO:TX:a:t=50:color=red	!	!LO:TX:a:t=50 Taktow	!	!LO:TX:b:t=Dona ut Kyrie.	!	!	!LO:TX:b:t=Dona ut Kyrie	!	!LO:TX:b:t=Dona u Kyrie	!	!LO:TX:b:t=50:rj	!LO:TX:a:t=50:rj	!	!	!LO:TX:a:t=50 Taktow	!
!LO:TX:b:t=Dona U Kyrie	!	!	!	!LO:TX:a:t=50.:rj	!	!	!LO:TX:b:t=Dona ut Kyrie:color=red	!	!LO:TX:b:t=Dona ut Kyrie.	!	!	!	!	!	!	!	!	!LO:TX:b:t=Dona Nobis ut Kyrie:rj	!LO:TX:b:t=Dona ut Kyrie	!LO:TX:b:t=Dona u(t) Kyrie	!	!LO:TX:b:t=Dona ut Kyrie	!
==	==	==	==	==	==	==	==	==	==	==	==	==	==	==	==	==	==	==	==	==	==	==	==
*-	*-	*-	*-	*-	*-	*-	*-	*-	*-	*-	*-	*-	*-	*-	*-	*-	*-	*-	*-	*-	*-	*-	*-
!!!system-decoration: [(s1,s2)][(s3,s4)][(s5,s6,s7)][(s8,s9)]{(s10,s11)}
!!!ENC: Andrzej Kubiczek
!!!END: 2020-09-20
!!!ENC: Krzysztof Stępień
!!!END: 2022-01-26
!!!RDF**kern: | = vertical stroke
!!!RDF**kern: > = above
!!!RDF**kern: < = below
